X:1
T:Symphony No. 7 in A Major
T:First Movement
T:Ludwig van Beethoven
T:Adp. from arrangement by Ernst Pauer (1826-1905)
%%score { ( 1 2 4 ) | ( 3 5 ) }
L:1/8
Q:1/4=72
M:4/4
K:A
V:1 treble nm="Piano"
V:2 treble 
V:4 treble 
V:3 bass 
V:5 bass 
V:1
"^Adagio" a4!p! e4 | c4 f4 |!f! e8- | e2 fe e2 fe | a2 z2 z4 | z4 z2 a2 |!f! [da]8 | %7
!p! [db]4 =c'4 |!p! [=ca=c']6 [Aa]2 | %9
!pp! [ee']/ .[G,B,]/.[A,C]/.[B,D]/ .[CE]/.[DF]/.[EG]/.[FA]/ .[DGB]/.[EGc]/.[FAd]/.[GBe]/ .[Acf]/!p!.[Bdg]/.[cea]/.[Bdb]/ | %10
!p! c'2 x2 x4 | %11
 .[A,CE]/.[A,C]/.[B,D]/.[CE]/ .[DF]/.[EG]/.[FA]/.[GB]/ .[EAc]/.[FAd]/.[GBe]/.[Acf]/ .[Bdg]/!p!.[cea]/.[deb]/.[cec']/ | %12
!p! d'2 x2 x4 | %13
 .[B,DG]/.[B,DG]/!p!.[CEA]/.[DFB]/ .[EGc]/!mp!.[FAd]/.[GBe]/.[Acf]/ .[Bdg]/!mf!.[cea]/.[dfb]/.[egc']/ .[fad']/!f!.[gbe']/.[ac'f']/.[bd'g']/ | %14
!ff! [ac'e'a']4 [eac'e']4 |!ff! c4 x4 |!ff! [egbe']4 [Beb]4 |!ff! [EAce]4 z4 |!ff! [dad']4 [DAd]4 | %19
 A4!ff! .a4 |!ff! [d=gbd']4 [=GBdg]4 | [=c=g=c']4 x4 |!p! [B=fb]4 =g/f/e/f/ .g.f | %23
 [=ce]2 [c=g]z/[cg]/ [c=c']2 [cg]z/[cg]/ | [B=f=g]4 g/f/e/f/ .g.f | %25
 [=ce]2 [c=g]z/[cg]/ [c=c']2 g/4a/4g/4a/4 =f/g/ | [=ca]2 [A=f]z/[Af]/ [ca=c']2 a/4b/4f/4a/4 b/c'/ | %27
 =c'=g ez/e/ g2 =f/d/B/=G/ |!p! =F4 =G/F/E/F/ .G.F | [=CE]2 [E=G]z/[EG]/ [G=c]2 Gz/G/ | %30
!p! =F4 =G/F/E/F/ .G.F | [=CE]2 [E=G]z/!mp![EG]/ [G=c]2!mp! Gz/!mf!G/ | %32
 [A=c]2 Az/!f!A/ [Ad]2 Bz/!ff!B/ | [EBe]4 [EB]4 | %34
 [B,E]/.E/.F/.G/ .A/.B/.c/.d/!ff! .e/!mf!.f/.g/.a/ .b/.c'/.d'/.e'/ | [Fcef]4 [CFc]4 | %36
!ff! [CEF]/!mf!.E/.F/.G/ .^A/.B/.c/.d/!ff! .e/.f/.g/.^a/ .b/.c'/.d'/.e'/ | [e=ge']4!ff! e4 | %38
!ff! .[E=G]/!mf!.E/.F/.G/ .A/.B/.c/.^d/!ff! .e/!mf!.f/.=g/.a/ .b/.c'/.^d'/.e'/ | [e=ge']4 e4 | %40
 [E=G=c]/[=Cc]/[Dd]/[Ee]/ [=F=f]/!mp![G=g]/[Aa]/[Bb]/ [c=c']/[dd']/[ee']/[f=f']/ [g=g']/!p![ee']/[dd']/[cc']/ | %41
!p! _b4 =c'/b/a/b/ c'b | [=c=fa]2 [ca=c']z/[cac']/ [fc'=f']2 [cac']z/[cac']/ | _b4 =c'/b/a/b/ c'b | %44
 [=c=fa]2 [ca=c']z/[cac']/ [fc'=f']2 c'/4d'/4c'/4d'/4 _b/c'/ | %45
 [d=fd']2 [_Bf_b]z/[Bfb]/ [f=f']2 d'/4e'/4c'/4d'/4 e'/f'/ | %46
 =f'=c' [=c=fa]z/[cfa]/ [c=gc']2 _b/g/e/c/ |!p! _B4 =c/B/A/B/ .c.B | %48
 [=CA]2 [A=c]z/[Ac]/ [A=f]2!mp! [Ac]z/[Ac]/ | [=CA]2 [A=c]z/[Ac]/ [Aa]2!mf! [Ac]z/[Ac]/ | %50
 [=C=FA]2 [CA=c]z/[Ac]/ [ca]2 [Ac]z/[Ac]/ | [=CA=c]2!f! [ca]z/[ca]/ [c=c']2 [Aa]z/!ff![Aa]/ | %52
 [ee'] z z2!f! [ee']/!p! E/E/E/ E/E/E/E/ |!p! [G-e]4 [Geg]2 [gb]>[fa] | %54
!f! [eg] z z2!f! [ee']/!p!E/E/E/ E/E/E/E/ | [G-e]4 [Geg]2 [gb]>[fa] | %56
!p! [Beg]/!pp![ee']/[ee']/[ee']/ [ee']/[ee']/[ee']/[ee']/ [ee']/ e/e/e/ e/e/e/e/ | %57
 e [ee'][ee'][ee'] [ee'] eee | e2 z2 [ee']2 z2 | e2 z2 [ee']2 z3/2!p! [ee']/ | %60
 [ee']2 z3/2 e/ e2 z3/2!pp! [ee']/ | [ee']2 z3/2 e/ e2 z!p! [ee'] || %62
[M:6/8][Q:1/4=136]"^Vivace" [ee']>[ee'][ee'] [ee']>[ee'][ee'] | [ee']>[ee'][ee'] [ee']>[ee'][ee'] | %64
 [ee']>[ee'][ee'] [ee']>[ee'][ee'] |!<(! [c'e']>[c'e']!mp![c'e'] [ec'e']>[ec'e']!mf![ec'e']!<)! | %66
!mp! e'3- e'>.d'.c' |{/.c'} d'3- d'>.f.g | a2 a a>.b.c' | c' b2{/c'b^a} b>.c'.d' | e'3- e'>.d'.c' | %71
 d'3 d'>.f.g | a2 a ac'.b | a3 z2 [dfa] | [Adfa]2 [Aa] [Aa]>.d'.[ff'] | [ff'][ee'].c' a2 E | %76
 F!p!E.C A,2 [Aa] | [Aa]>.[dd'].a a>.[dd'].[ff'] | [ff'][ee'].c' a2 [A,CE] | [A,CF]E.C A,2 [cc'] | %80
 [Bb]2 e e>.[cc'].a |!f! [ee']3- [ee']2!p! [cc'] | [Bb]2 e e>.[cc'].a | [e-e']3 e>cA | %84
!ff! [Ee]3- [Ee]>!f!c^A |!ff! [Ee]z/!f!d/B!ff! [Gg]z/!f!e/d |!ff! [Bb]z/!f!g/e!ff! [dd']z/b/g | %87
[Q:1/4=72] !fermata![dgbd']3!ff![Q:1/4=144] e/f/g/a/(3b/c'/d'/ | %88
!f! [ee']3- [ee']>!ff![dd'][cc']"^sempre" |!f!{/c'} [dd']3- [dd']>!ff![df][dg] | %90
!f! [Aca]2 [Aca] [Aca]>!ff![Beb][cac'] |!f! [cac'] [Bgb]2- [Bgb]>!ff![cac'][dbd'] | %92
!f!{/^d'} [ec'e']3- [ec'e']>!ff![=d=d'][cc'] |!f!{/c'} [dd']3- [dd']>!ff![df][dg] | %94
!f! [ca]2 [ca] [ca][ec'].[dgb] | [ca]2 z z2 [Aa] | [Aa]2 [Aa] a>d'f' | %97
 [ff'][ee'].[cc'] [Aca]2 [Aca] | [Ada]>d'a a>d'f' | [fc'f'][ee'].[cc'] [Aca]2 e!p! | %100
 [Acf]e.c!<(! fe.c |!mf! [Ad=g]f.d gf!<)!.d | [Bda]^g.d [GB]2 [Bg] | ba.e fe.c | %104
 [Acf]e.c!mp!!<(! [Acf]e.c |!mf! [Ad=g]f.d!f! [Adg]f!<)!.d | [Bda]^g.e [Bda]g.e | %107
 [ceb]a.e [ead']c'.a |!ff! e'3- e'>^d'c' | [^db^d']3- [dbd']!mp!.[Adfa].[B=dfb] | %110
 [cfc']2 [cfc'] c'>.[^d^d'].c' | [^Bg^b]2 .G .G>.^B.^d |{/c} e2 .e .e>.^d.c | %113
 ^B2 .G .G>!mp!!<(!.B.^d | e2!mf! e g2!<)! g |!f! [=G_e=g]2!p! .e .e>.g.[_B_b] | %116
 [_c_c']2 .[cc'] .[cc']>.[_B_b].[_A_a] | [=G=g]2 ._e .e>!mp!!<(!.g.[_B_b] | %118
 [=B=b]2!mf! [Bb] [=eb=e']2 [ebe']!<)! |!f! [ee'][^d^d'] z d/e/d/c/B/A/ | %120
 [GBg]2 [Gg] [cgc']2 [cgc'] | [cc']!f![Bb] z B/c/B/^A/G/F/ | [Fe]2 [Ee] [Aea]2 [Aea] | %123
 .[A^da].[Ada] z .[Bfa].[Bfa] z | .[Beg].[Beg] z .[ege'].[ege'] z | %125
 .[^dfa^d'].[dfad'] z .[Bfa].[Bfa] z | .[Beg].[Beg] z .[ege'].[ege'] z |!>(! C3- C2 =C!>)! | %128
 [Bb]3- [Bb]2 f | e3 [eg]>[Be][Be] | [fa]>[Bf][Bf] [Bgb]3- | [Bgb]3 [ebe']>[Bgb][Bgb] | %132
 [Bgb]>[Geg][Geg] [Geg][Afa][F^df] | [Ee]3 [Geg]>[Be][Be] | [Afa]>[Bf][Bf] [B=gb]>[Bgb][B=fgb] | %135
 [=ce=g=c']>[cc']g e>[Ee]c | =G>[=G,G]E =C>CG, | =C2 z z3/2 =G,/G, | =C2 z z3/2 =G/G | %139
!p! [=C=c]2 z4 | [=C=c]2 z4 |!p! a2[K:bass]!mp! ^D,,/E,,/ =F,, z/[K:treble]!p! =g/f | %142
 a2 f/=g/ a>gf | a2[K:bass]!mp! ^D,,/E,,/ =F,, z/[K:treble]!p! =g/f | a2 f/=g/ a>gf | %145
 a2 f/^g/ a>g!mp!f | b2 g/a/ b>ag | c'2 a/b/ c'>!mf!ba | ^d'2 b/c'/ d'>c'b | %149
 e'2 c'/^d'/ e'>!f!d'c' | f'2 ^d'/e'/ f'>e'!ff!d' | %151
!mp! [e'g']/g/[e'g']/g/[e'g']/g/ [e'g']/g/[e'g']/g/[e'g']/g/ | %152
 [e'g']/g/[e'g']/g/[e'g']/g/ [e'g']/g/[e'g']/g/[e'g']/g/ | %153
 [c'e'f']/f/[c'e'f']/f/[c'e'f']/f/ [c'e'f']/f/[c'e'f']/f/[c'e'f']/f/ | %154
 [c'e'f']/f/[c'e'f']/f/[c'e'f']/f/ [c'e'f']/f/[c'e'f']/f/[c'e'f']/f/ |!p! [=f=f']3 [=c=c']3 | %156
 [^D^d]3!mp! [Bb]!mf!c'/^d'/!f!e'/f'/ | %157
!mp! [e'g']/g/[e'g']/g/[e'g']/g/ [e'g']/g/[e'g']/g/[e'g']/g/ | %158
 [e'g']/g/[e'g']/g/[e'g']/g/ [e'g']/g/[e'g']/g/[e'g']/g/ | %159
 [c'e'f']/f/[c'e'f']/f/[c'e'f']/f/ [c'e'f']/f/[c'e'f']/f/[c'e'f']/f/ | %160
 [c'e'f']/f/[c'e'f']/f/[c'e'f']/f/ [c'e'f']/f/[c'e'f']/f/[c'e'f']/f/ |!p! [=f=f']3 [=c=c']3 | %162
!mp! [^D^d]3- [Dd]!f![Bb][Bb] |!ff! [Bb]3- [Bb]>[Aa][Gg] |{/g} [Aa]3- [Aa]>!f![Ac][AB^d] | %165
!ff! !>!e2 z!ff! !>!g2 z |!ff! !>!b2 z B/[^df]/B/b/[fab]/B/- | %167
!ff! [Begb]2 [Gg]{/g} [Aa]>[Ac][Ac^d] |!ff! e2 z z/ B/[fa]/b/[fab]/B/- | %169
!ff! [Begb]2 [Gg]{/g} [Aa]>[Ac][Ac^d] |{/^d} [Ee]2 [ee']{/e} [Ff] [ee']2 | %171
{/f} [Gg]2 [ee']{/g} [Aa]2 [ee'] |{/a} [Bb]2 [ee']{/b} [cc']2 [ee'] | %173
{/c'} [dd']2 [ee'] [^d^d']2 [ee'] | z6 | z6 |!ff!{/^d} [Ee]2 [=g=g']{/e} [=F=f]2 [gg'] | %177
{/=f} [^F^f]2 [=g=g']{/f} [=Gg]2 [gg'] | z6 | z6 |!p! =G>GG G>GG | =G>GG G>GG | %182
 [E=G]>[EG][EG] [EG]>[EG][EG] | [=CE=G]>[CEG][CEG] [CEG]>[CEG][CEG] |!mp! [=CE=G]6- | [CEG]6 | %186
!p! [=CE=G]3- [CEG]>=FE | =F>=GA B>=cd | e>=f=g a>b=c' | d'>=c'b [Ba]>[=c=g][d=f] | e>d=c c z z | %191
 [Bd]>[A=c][=GB] A>G=F | =g3- g>=fe | [d=f]>[=c=g][Ba] [ab]>[g=c'][fd'] | %194
 [ee']3/2 [=Ge=g]/[Geg] [Geg]>[Geg][Geg] | [=Ge=g]>[Geg][Geg] [Geg]>[Geg][Geg] | %196
 [A_ea]>[Aea][Aea] [Aea]>[Aea][Aea] | [A_ea]>[Aea][Aea]!mp! [Aea]>[Aea][Aea] | %198
 [Bdb]>[Bdb][Bdb] [Bd=gb]>[Bdgb][Bdgb] |!mf! [Bdb]>[Bdb][Bdb] [Bd=gb]>[Bdgb][Bdgb] | %200
!f! [=ce=c']>[cc']e [=Ge=g]3- | [Geg]>[=G=g]e e3 | e>e=c c>[=Cc]=G | =G>[=G,G]E E>[E,E]=C | %204
 [=G,B,=F]3/2 [=f=gb=f']/[fgbf'] [fgbf']>[fgbf'][fgbf'] | %205
 [=f=gb=f']>[fgbf'][fgbf'] [fgbf']>[fgbf'][fgbf'] | [=f=gb=f'] z/ [ff']/d' [fgbd']3- | %207
 [fgbd']>d'b [d=f=gb-]3 | [=f=gb]3/2 [=Gg]/[=Ff-] f>[Ff]d- | d>dB B>=G=F | %210
 [EBe]3/2 [ebe']/[ebe'] [ebe']>[ebe'][ebe'] | [ebe']>[ebe'][ebe'] [ebe']>[ebe'][ebe'] | %212
!ff! [ebe']3/2 [ee']/b [Be^gb]3- | [Begb]>[Bb]g [Beg-]3 | g>!f![Gg]e- e>[Ee]B- | %215
 B>[B,B]G G>[G,G]E |!ff! E>!mf!EE!fff! [ee']>!mf![ee'][ee'] | %217
!fff! C>!mf!CC!fff! [=f=f']>!mf![ff'][ff'] | C>!mf!CC!fff! [=f=f']>!mf![ff'][ff'] |!p! [=f-_a]6 | %220
 [f=a]3- [fa]2- [fa]/[a=c']/ |!p! [a=c']3- [ac']>[=g_b][=fa] | [=g_b]>de [=fa]z/A/=B | %223
 [_B=c=g]2 z [Ac=f]2 z/ [=G=g]/ | =g3- g>fe | [d=f]z/A/B [=ce]z/E/^F | %226
 [=Gd]z/=F/F [E=c] z z/ [dd']/ | [d_bd']3- [dbd']>[da=c'][d=g_b] | [da=c']>e^f [=g_b]z/_B/=c | %229
 [=cda]2 z [_Bd=g]2 z/ [Aa]/ | a3- a>=g=f | [e=g]>B^c [d=f] z/ =F/=G | [=GAe]2 z [=FAd]2 z | %233
 [e=g]>B^c [d=f] z/ =F/=G | [=GAe]2 z [=FAd]2 z | [Aa]>[Aa][Aa]!p! [Aa]>[Aa][Aa] | %236
 [Aa]>[Aa][Aa] [Aa]>[Aa][Aa] | [da]>[d_b][eb] [=fb]>[eb][fb] | [=g_b]z/[=fb]/[gb] [ab]z/[gb]/[ab] | %239
 _bz/[_Bb]/[Bb]!mp! [Bb]>[Bb][Bb] | [_B_b]>[Bb][Bb] [Bb]>[Bb][Bb] | %241
 [_B_b]z/[e=c']/[=fc'] [=gc']z/[fc']/[gc'] | [a=c']z/[=g_b]/[ac'] [bc']z/[ac']/[bc'] | %243
 =c'>[=c_bc'][cbc']!mf! [cbc']>[cbc'][cbc'] | [=c_b=c']>[cbc'][cbc'] [cbc']>[cbc'][cbc'] | %245
 [=c=c']z/[d^fd']/[d=gd'] [dad']z/[dgd']/[dad'] | [d_bd']z/[dad']/[dbd'] [d=c'd']z/[dbd']/[dc'd'] | %247
 [dd']>[d=c'd'][dc'd']!f! [dc'd']>[dc'd'][dc'd'] | %248
 [d=c'd']>[dc'd'][dc'd'] [dc'd']>[dc'd']!ff![dc'd'] | [dd']>d^c [d=gd']>[dgd'][cg^c'] | %250
 [d=gd'] z/ d/^c [dgd']z/[dgd']/[^dg^d'] | [e=ge']z/e/^d [ege']z/[ege']/[dg^d'] | %252
 [e=ge']z/e/^d ez/[Aea]/[Aea] |!ff! [A=fa]z/[Afa]/[Aea] [Afa]z/[Afa]/[Aea] | %254
 [A=fa]z/[Afa]/[Aea] [Afa]z/[Afa]/[Aea] | [A=fa]z/!f![f=f']/[=g=g'] [aa']z/[dd']/[ee'] | %256
 [=f=f']z/[=Ff]/[=G=g] [Afa]z/[Aa]/[Aa] | [Aea]z/[Aea]/[A^da] [Aea]z/[Aea]/[Ada] | %258
 [Aea]z/[Aea]/[A^da] [Aea]z/[Aea]/[Ada] | [Aea]z/!f![=c=c']/[dd'] [ee']z/[Aa]/[Bb] | %260
 [=c=c'] z/ [cc']/[dd'] [ee'] z/ [ee']/[ee'] | [ed'e']z/[ed'e']/[e^c'e'] [ed'e']z/[ed'e']/[ec'e'] | %262
 [ed'e']z/[ed'e']/[e^c'e'] [ed'e']z/[ed'e']/[ec'e'] | [ed'e']z/[dd']/[ee'] [=f=f']z/B/=c | %264
 d z/ [Bb]/[=c=c'] [dd'] z/ ^G/A | Bz/[Gg]/[Aa] [Bb]z/d/e | =fz/[Bb]/[=c=c'] [dd']z/G/A | %267
 [B,B]z/G/[A,A] [B,B]z/A/[B,B] | [=C=c]z/A/[B,B] [Cc]z/B/[^C^c] | [Dd]z/B/[Cc] [Dd]z/c/[^D^d] | %270
 [Ee]z/c/^d [Ee]z/c/d | [Ee]z/[cc']/[dd'] [ee']z/[cc']/[dd'] | %272
 [ee']z/[cc']/[dd'] [ee']z/[cc']/[dd'] | [ee']>[ee'][ee'] [ee']>[ee'][ee'] | %274
 [ee']>[ee'][ee'] [ee']>[ee'][ee'] | [ec'e']>[ec'e'][ec'e'] [ec'e']>[ec'e'][ec'e'] | %276
 [ec'e']>[ec'e'][ec'e'] e/f/g/a/(3b/c'/d'/ |!fff! [ac'e'a']3- [ac'e'a']>[dd'][cc'] | %278
{/c'} [dd']3- [dd']>f g/ [ac'e'a']/ | [ac'e'a']2 [Aa] [Aa]>[Bb][cc'] | %280
 [cc'] [Bb]2- [Bb]>[cc'] [dd']/ [ac'e'a']/ |!ff! [ac'e'a']3- [ac'e'a']>[dd'][cc'] | %282
{/c'} [dd']3- [dd']>f g/ [ac'e'a']/ |!ff! [ac'e'a']2 [Aca] [ca][ec'][db] | [ca]2 z z2 z/ [Aa]/ | %285
 [Adfa]2 A A>df | [Acf]e.c A2 [ee'] |!ff! [ff']!f![ee'].[cc'] [Aa]2 z/ [Acea]/ | [Adfa]>dA A>df | %289
 [Acf]e.c A2 [ee'] | [ff'][ee'].[cc'] [Aa]2 z/ e/ | [EGBe]2 E E>cA | [E-GBe-]3 [Ee]2 z/ e/ | %293
 [EGBe]2 E E>cA | [E-GBe-]3 [Ee]>cA | [E-GBe-]3 [Ee]>c^A | [Ee]z/d/B [Gg]z/e/d | %297
 [Beb]z/g/e [ded']z/b/g |!ff![Q:1/4=60] !fermata![degbd']3 z z3/2!p! [e=gc']/ | %299
 !fermata![e=gc']3[Q:1/4=136] A/B/c/d/(3e/f/g/ | a3- a>!p!=gf | =g3- g>!p!Bc | d2!p! d d>ef | %303
!p! f e2- e>f=g | a3- a>!p!=gf | =g3- g>!p!Bc | d2 d d=f[ce] | [Ad]>[Aa][Aa] [_Bd_b]2 d | %308
 d2 d d>=g_b | _ba=f d2 f | =f2 f f>_bd' | d'=c'a =f2 A | A2 A A>d=f | =fe=c A2!pp! E | %314
 [A,=C=F]E.C A,2 e | [Ad=g]=f.d A2 f | [Bda]=g.d B2 g | [=ceb]a.e c2 [Ece] | %318
 [=Fd=f][E=ce].[Ac]!p! [Fdf][Ece].[Ac] | [=Ge=g][=Fd=f].[Ad]!mp! [Geg][Fdf].[Ad] | %320
 [Ada][Gg].e!mf! [Ada][Gg].e | [Beb][Aa].e!f! [dad'][=c=c'].a |!ff! =c'3- c'>ba | %323
{/a} [Beb]3- [Beb].[Be=f].[Be=g] | [Ada]2 [Ada] a>ba |!p! [Beg]2 .E .E>.G.B |{/A} =c2 .c .c>.B.A | %327
 G z .e .e>.g.[Bb] |{/a} [=c=c']2 .[cc'] .[cc']>.[Bb].[Aa] | [Gg]2!mp! e e>!mf!gb | %330
!f! [^c^c']2 [cc'] [fc'f']2 [fc'f'] | f'[ee'] z z3 | [Aa]2 [Aa] [dad']2 [dad'] | [dd'][cc'] z z3 | %334
 [Ff]2 [Ff] [Bfb]2 [Bfa] |!f! .[Beg].[Beg] z .[ebd'].[ebd'] z | .[eac'].[eac'] z .[cea].[cea] z | %337
 .[Beg].[Beg] z .[ebd'].[ebd'] z | .[eac'].[eac'] z .[cea].[cea] z |!>(! F3- F2!>)! =F | %340
!p! [ee']3- [ee']2 b | a3 [ac']>[ea][ea] | [bd']>[eb][eb] [c'e']3- | %343
 [c'e']3- [c'e']>[ec'e'][ec'e'] | [ec'e']>[ac'][ac'] [ac'][bd'][gb] | [Aa]3 [ac']>[ea][ea] | %346
 [bd']>[eb][eb] [=c'e']>[ec'e'][e_bc'e'] | [=fa=c'=f']>[ff']c' a>[Aa]f | =c>[=Cc]A =F>[=F,F]C | %349
 [=F,=F]2 z z3/2 =C/C | [=F,=F]2 z z3/2!p! =c/c | [=F=f]2 z4 | [=F=f]2 z4 | %353
!p! d2[K:bass] G,,/A,,/ B,,[K:treble] z/ =c/B | z z b/=c'/ d' z z | %355
 d2[K:bass] G,,/A,,/ B,,[K:treble] z/ =c/B | z z b/=c'/ d' z z/ z/ |!p! d2!p! B/c/ d>!p!cB | %358
 e2!mp! c/d/ e>!mp!dc | f2!mp! d/e/ f>e!mf!d | g2!mf! e/f/ g>!mf!fe | a2!f! f/g/ a>!f!gf | %362
 b2!f! g/a/ b>!f!ag |!mp! [ac']/c/[ac']/[ac']/c/[ac']/ [ac']/c/[ac']/[ac']/c/[ac']/ | %364
 [ac']/c/[ac']/[ac']/c/[ac']/ [ac']/c/[ac']/[ac']/c/[ac']/ | %365
 [fab]/B/[fab]/[fab]/B/[fab]/ [fab]/B/[fab]/[fab]/B/[fab]/ | %366
 [fab]/B/[fab]/[fab]/B/[fab]/ [fab]/B/[fab]/[fab]/B/[fab]/ |!p! [_B_b]3 =f3 |!mp! G3 e!f!f/g/a/b/ | %369
!mp! [ac']/c/[ac']/[ac']/c/[ac']/ [ac']/c/[ac']/[ac']/c/[ac']/ | %370
 [ac']/c/[ac']/[ac']/c/[ac']/ [ac']/c/[ac']/[ac']/c/[ac']/ | %371
 [fab]/B/[fab]/[fab]/B/[fab]/ [fab]/B/[fab]/[fab]/B/[fab]/ | %372
 [fab]/B/[fab]/[fab]/B/[fab]/ [fab]/B/[fab]/[fab]/B/[fab]/ |!p! [_B_b]3 =f3 |!mp! G3!mf! e2 e' | %375
!ff! [ee']3- [ee']>[dd'][cc'] |{/c'} [dd']3- [dd']>!ff!.[df].[deg] |!ff! a2 z!ff! c'2 z | %378
!ff! e'2 z e z/!ff! [ebd'e']/[ebd'e'] | [eac'e']2 [cc'] [dd']>[df][deg] | %380
 a2 z z3/2!ff! [ebd'e']/[ebd'e'] | [eac'e']2 [cc'] [dd']>[df][deg] |{/g} [Aa]2 a{/a} [Bb]2 a | %383
{/b} [cc']2 a{/c'} [dd']2 a |{/d'} [ee']2 a{/e'} [ff']2 a |{/f'} [gg']2 a{/g'} [aa']2 a | z6 | z6 | %388
!p!{/=g} [_A_a]2 A z3 | z6 | z6 | [=C_E]>[CE][CE] [CE]>[CE][CE] | [=C_E]3- [CE]>_DC | %393
 [=c_e]3- [ce]>_dc | [=C_E]3- [CE]>_DC | [=c_e]3- [ce]>_dc | A3- A>=G=F | a3- a>=g=f | %398
 [A^c]3- [Ac]>[EB][^CA] | [ac']3- [ac']>[eb][ca] | [Ee-]6 | e3 [Aa]2 e | [Ee-]6 | e3 [cc']2 [Aa] | %404
 [Ee-]6 | e2 [Aa] [Aa]2 [Ee] | [Ee]6 | e2 [cc'] [cc'][Bb][Aa] | [Ee]2 [Ee] [Ee-]3 | e2 [Aa] [Ee]3 | %410
 [Ee]2 [Ee] [Ee]3 | e2 [cc'] [Aa]3 | .[Ee]2 .[Ee] .[Ee]2 .[Ee] | .[Ee]2 .[Aa] .[Ee]2 .[Ee] | %414
 .[Ee]2 .[Ee] .[Ee]2 .[Ee] | .[Ee]2 .[cc'] .[Aa]2 .[Aa] | [Ee][Ee][Ee] [Ee][Ee][Ee] | %417
 e[Aa][Aa] [Aa]!p![Ee][Ee] | [Ee][Ee][Ee] [Ee][Ee][Ee] | e[cc'][cc'] [cc'][Aa][Aa] | %420
 E/e/!mp!E/e/E/e/ E/e/e/e'/!mf!e/e'/ | e/e'/e/e/!f!e'/e/ e/e'/e/e/e'/e/ | %422
!ff! [eae']>ee [Aea]>[Aea][Aea] | [eac']>[eac'] z [eae']>[eae'] z | %424
 [Fdf]>[Fdf][Fdf] [dfa]>[dfa][dfa] | [fad']>[fad'][fad'] [ad'f']>[ad'f'][ad'f'] | %426
 [ac'e']>.a'e' [ac'e']3- | [ac'e']>.g'e' [eac']3- | [eac']>.c'a- [cea]>.ae- | [Ace]>.ec- c>.cA- | %430
 A>.AF- F>.FE | ^D z/ [fbf']/[fbf'] [fbf']3/2 D/D | ^D z/ [fbf']/[fbf'] [fbf']3/2 D/D | %433
 =D3/2 [egbe']/[egbe'] [egbe']3/2 D/D | =D3/2 [egbe']/[egbe'] [egbe']3/2 D/D | %435
 C z/ [eae']/[eae'] [faf']3/2 D/D | E z/ [ec'e']/[ec'e'] [dbd']2 z | %437
 [cac']z/[fad'f']/[fad'f'] [fad'f']z/[ed'e']/[ec'e'] | %438
 [ec'e']z/[dbd']/[dbd'] [dbd']z/[cac']/[cac'] | %439
 [cac']z/[fad'f']/[fad'f'] [fad'f']z/[eac'e']/[eac'e'] | %440
 [eac'e']z/[egbe']/[egbe'] [egbe']z/[eac'e']/[eac'e'] | [c'e']3 [ec'e']>[ebd'][eac'] | %442
 [egb]z/[egb]/[egb] [egb]z/[ec'e']/[ec'e'] | [c'e']3 [ec'e']>[ebd'][eac'] | %444
 [egb]z/[egb]/[egb] [egb]z/[ec'e']/[ec'e'] | %445
 [eac'e']z/[ac'e'a']/[ac'e'a'] [ac'e'a']z/[ac'e'a']/[ac'e'a'] | %446
 [ac'e'a']z/[Acea]/[Acea] [Acea]z/[Acea]/[Acea] | [Acea]2 z2 z2 |!fff! [ee']2 z2 z2 | %449
 [ceac']2 z2 z2 |] %450
V:2
 [Ac]2 z2 z4 | x8 | e4!p! B4 | x4 d4 | [ce]8- | [ce]!pp![Bd][Ac][Bd] [ce][df][e=g][ce] | d4!p! A4 | %7
 B4 =c4 | x8 | x8 | c4 [CEA]4 | x8 | d4 [GB]4 | x8 | x8 | %15
 z/!mf! .E/.F/.G/ .A/.B/.c/.d/ .e/.f/.g/.a/ .b/.c'/.d'/.e'/ | x8 | %17
 z/!mf! .C/.D/.E/ .F/.=G/.A/.B/ .c/.d/.e/.f/ .=g/.a/.b/.c'/ | x8 | %19
 D/!mf!.D/.E/.=F/ .=G/.A/.B/.c/ .d/!mf!.e/.=f/.=g/ .a/.b/.c'/.d'/ | x8 | %21
 z/!mf! .[=C=c]/.[Dd]/.[Ee]/ .[=F=f]/.[=G=g]/!mp!.[Aa]/.[Bb]/ .[c=c']/.[dd']/.[ee']/.[f=f']/ .[g=g']/!p!.[ee']/.[dd']/.[cc']/ | %22
 x4 B2 BB | x8 | x4 B2 BB | x6 =c2 | x6 =fz/f/ | e2 =c x/ c/ d2 =F/[I:staff +1]D/B,/=G,/ | %28
[I:staff -1] =G,4 G,/G,/G,/[I:staff +1]=G,/ G,/G,/G,/G,/ |[I:staff -1] =G,4 x4 | %30
 =G,4 G,/G,/G,/[I:staff +1]=G,/ G,/G,/G,/G,/ |[I:staff -1] =G,4 =C/!pp!C/C/C/ C/C/C/C/ | %32
 =C2 D/D/D/D/ D2 D/D/D/D/ | x4 .B,/.A,/.B,/.C/ .D/.E/.F/.G/ | x4 e4 | x8 | x4 e4 | %37
 x4 [E=G]/!mf![EG]/[EG]/[EG]/ [EG]/[EG]/[EG]/[EG]/ | x4 e4 | %39
 x4 [E=G]/!mf![EG]/[EG]/[EG]/ [EG]/[EG]/[EG]/[EG]/ | x8 | [=c=g]4 [cg]2 [cg][cg] | x8 | %43
 [=c=g]4 [cg]2 [cg][cg] | x6 =f z | x6 =fz/f/ | =f2 z4 _B/[I:staff +1]=G/E/=C/ | %47
[I:staff -1] =C2 =G4 C2 | x8 | x8 | x8 | x8 | x8 | x6 B2- | B z z2 x4 | x6 B2 | x8 | x8 | x8 | x8 | %60
 x8 | x8 ||[M:6/8] x6 | x6 | x6 | x6 | e6 | e6 | e6 | e6 | e6 | e6 | [ce]2 [ce] ce[dg] | c>de ffA | %74
 x6 | x6 | x6 | x6 | x6 | x6 | x6 | x6 | x6 | x6 | x6 | x6 | x6 | x6 | x6 | x6 | x6 | x6 | x6 | %93
 x6 | x6 | x6 | x3 a2 f | x6 | x3 a2 f | x6 | x3 A3 | x3 A3 | x6 | c3 [Ac]2 z | x6 | x6 | x6 | x6 | %108
 [e^a]3- [ea]3 | x6 | x3 [cf]2 [cf] | x6 | x6 | x6 | G3 [Gc]3 | x6 | x6 | x6 | x6 | a>^gf/e/ x3 | %120
 x6 | f>e^d/c/ x3 | B =A2 x3 | x6 | x6 | x6 | x6 | x6 | x6 | x6 | x6 | x6 | x6 | x6 | x6 | x6 | %136
 x6 | x6 | x6 | x6 | x6 | x2[K:bass] x5/2[K:treble] x3/2 | x6 | x2[K:bass] x5/2[K:treble] x3/2 | %144
 x6 | a/A/a/A/f/g/ a/A/a/g/f/A/ | b/B/b/B/g/a/ b/B/b/a/g/B/ | c'/c/c'/c/a/b/ c'/c/c'/b/a/ z/ | %148
 =d'/^d/^d'/d/b/c'/ d'/d/d'/c'/b/d/ | e'/e/e'/e/c'/^d'/ e'/e/e'/d'/c'/e/ | %150
 f'/f/f'/f/^d'/e'/ f'/f/f'/e'/d'/f/ | x6 | x6 | x6 | x6 | x6 | x6 | x6 | x6 | x6 | x6 | x6 | x6 | %163
 x6 | x6 | G/!mp!B/G/B/G/B/ G/!mp!B/G/B/G/B/ | B/!mp![^df]/B/[df]/B/[df]/ z z2 | x6 | %168
 G/!mp!B/G/B/G/B/ x x2 | x6 | x6 | x6 | x6 | x6 | x6 | x6 | x6 | x6 | x6 | x6 | x6 | x6 | x6 | x6 | %184
 x6 | x6 | x6 | =F6 | x6 | x6 | E>=F=G A>B=c | x6 |[I:staff +1] E>[I:staff -1]=F=G A>B=c | x6 | %194
 x6 | x6 | x6 | x6 | x6 | x6 | x6 | x3 [E=c]3- | [E=Gc] z z [EG] z z | [=CE] z z [=G,C] z z | x6 | %205
 x6 | x6 | x6 | d3/2 x3/2 [=GB] z z | [=F=G] z z [DF] z z | x6 | x6 | x6 | x6 | [Be] z z [GB] z z | %215
 [B,E] z z [B,E] z z | x6 | x6 | x6 | x6 | x6 | x6 | x6 | x6 | =G>AB =c>Bc | x6 | x6 | x6 | x6 | %229
 x6 | A>=B^c d>cd | x6 | x6 | x6 | x6 | x6 | x6 | x6 | x6 | x6 | x6 | x6 | x6 | x6 | x6 | x6 | x6 | %247
 x6 | x6 | x6 | x6 | x6 | x6 | x6 | x6 | x6 | x6 | x6 | x6 | x6 | x6 | x6 | x6 | x6 | x6 | x6 | %266
 x6 | x6 | x6 | x6 | x6 | x6 | x6 | x6 | x6 | x6 | x6 | x6 | x6 | x6 | x6 | x6 | x6 | x6 | x6 | %285
 x6 | x6 | x6 | x6 | x6 | x5 [EAc] | x6 | x5 [EAc] | x6 | x6 | x6 | x6 | x6 | x6 | x6 | %300
 A>!pp!AA A>AA | A>!pp!AA A>AA | A>!pp!AA A>AA | A>AA A>AA | A>!pp!AA A>AA | A>!pp!AA A>AA | %306
 A>AA A>AA | x6 | [D=G_B]2 z x3 | [Ad]2 z4 | [=F_Bd]2 z x3 | [=c=f]3 z z2 | =F6 | [EA]3 x3 | x6 | %315
 x6 | x6 | x6 | x6 | x6 | x6 | x6 | [=c^df]6 | x6 | x6 | x5 E | x2 E x2 E | x6 | x6 | x3 e2 d | %330
 x6 | b>ag/f/ e/^d/e/=d/c/B/ | x6 | g>fe/d/ c/^B/c/=B/A/G/ | x6 | x6 | x6 | x6 | x6 | x6 | x6 | %341
 x6 | x6 | x3 a' x2 | x6 | x6 | x6 | x6 | x6 | x6 | x6 | x6 | x6 | x2[K:bass] x2[K:treble] x2 | %354
 d3 d>=cB | x3/2[K:bass] x2[K:treble] x5/2 | d3 d>=cB/ x/ | d/!pp!D/d/D/B/c/ d/!pp!D/d/c/B/D/ | %358
 e/!pp!E/e/E/c/d/ e/!p!E/e/d/c/E/ | f/!p!F/f/F/d/e/ f/!p!F/f/e/d/F/ | %360
 g/!mp!G/g/G/e/f/ g/!mp!G/g/f/e/G/ | a/!mp!A/a/A/f/g/ a/!mf!A/a/g/f/A/ | %362
 b/!mf!B/b/B/g/a/ b/!mf!B/b/a/g/B/ | x6 | x6 | x6 | x6 | x6 | x6 | x6 | x6 | x6 | x6 | x6 | x6 | %375
 x6 | x6 | c/!mp!e/c/e/c/e/ c/!mp!e/c/e/c/e/ | e/!mp![gb]/e/[gb]/e/[gb]/ x3 | x6 | %380
 c/!mp!e/c/e/c/e/ z x2 | x6 | x6 | x6 | x6 | x6 | x6 | x6 | x6 | x6 | x6 | x6 | x6 | x6 | x6 | x6 | %396
 =C6 | [A=c]6 | x6 | x6 | x6 | x6 | x6 | x6 | x6 | x6 | x6 | x6 | x6 | x6 | x6 | x6 | x6 | x6 | %414
 x6 | x6 | x6 | x6 | x6 | x6 | x6 | x6 | x6 | x6 | x6 | x6 | x6 | x6 | x6 | x6 | x6 | x6 | x6 | %433
 x6 | x6 | x6 | x6 | x6 | x6 | x6 | x6 | ez/e/e x3 | x6 | ez/e/e x3 | x6 | x6 | x6 | x6 | x6 | %449
 x6 |] %450
V:3
!f! [A,,,E,,A,,]2 z2 z4 |!pp! [A,C]8 | [G,,,E,,G,,]2 z2 z4 |!pp! E4 z4 | %4
!f! [A,,,C,,A,,]2 z2!p! E4 | A,4!mp! A4 | z2!pp! D4 A,2 | %7
 [=F,,=G,,D,=F,]4!ped! [E,,G,,=C,E,]4!ped-up! | %8
!ped! [=F,,A,,=C,=F,]2 [A,,A,]4 [F,,F,]/F,,/F,,/F,,/!ped-up! | %9
 [E,,E,]/[E,,E,]/[E,,E,]/[E,,E,]/ [E,,E,]/[E,,E,]/[E,,E,]/[E,,E,]/ [E,,E,]/!p![E,,E,]/[E,,E,]/[E,,E,]/ [E,,E,]/[E,,E,]/[E,,E,]/[E,,E,]/ | %10
!ped! [A,C]4!pp! [E,A,]4!ped-up! | %11
 [E,,E,]/[E,,E,]/[E,,E,]/[E,,E,]/ [E,,E,]/[E,,E,]/[E,,E,]/[E,,E,]/ [E,,E,]/!p![E,,E,]/[E,,E,]/[E,,E,]/ [E,,E,]/[E,,E,]/[E,,E,]/[E,,E,]/ | %12
!ped! [B,D]4!pp! [G,B,]4!ped-up! | %13
!p! [E,,E,]/[E,,E,]/[E,,E,]/!mp![E,,E,]/"^cresc." [E,,E,]/[E,,E,]/[E,,E,]/!mf![E,,E,]/ [E,,E,]/[E,,E,]/[E,,E,]/[E,,E,]/!f! [E,,E,]/[E,,E,]/[E,,E,]/[E,,E,]/ | %14
 .[A,,,A,,]/.[A,,,A,,]/.[B,,,B,,]/.[C,,C,]/ .[D,,D,]/.[E,,E,]/.[F,,F,]/.[G,,G,]/ .[A,,A,]/.[B,,B,]/.[C,C]/.[D,D]/ .[E,E]/.[F,F]/.[G,G]/.[A,A]/ | %15
!f! z4!ff! F4 | %16
 [G,B,E]/ .[G,,,G,,]/.[A,,,A,,]/.[B,,,B,,]/ .[C,,C,]/.[D,,D,]/.[E,,E,]/.[F,,F,]/ .[G,,G,]/.[A,,A,]/.[B,,B,]/.[C,C]/ .[D,D]/.[E,E]/.[F,F]/.[G,G]/ | %17
 [=G,,=G,]/!mp![G,A,]/[G,A,]/[G,A,]/ [G,A,]/[G,A,]/[G,A,]/[G,A,]/!ff! [G,A,]/!mp![G,A,]/[G,A,]/[G,A,]/ [G,A,]/[G,A,]/[G,A,]/[G,A,]/ | %18
 [F,A,D]/ .[F,,,F,,]/.[=G,,,=G,,]/.[A,,,A,,]/ .[B,,,B,,]/.[C,,C,]/.[D,,D,]/.[E,,E,]/ .[F,,F,]/.[G,,=G,]/.[A,,A,]/.[B,,B,]/ .[C,C]/.[D,D]/.[E,E]/.[F,F]/ | %19
!ff! [=F,,=F,]/!mp![F,A,]/[F,A,]/[F,A,]/ [F,A,]/[F,A,]/[F,A,]/[F,A,]/ [F,A,]/[F,A,]/[F,A,]/[F,A,]/ [F,A,]/[F,A,]/[F,A,]/[F,A,]/ | %20
 [=F,=G,B,]/ .[=F,,,=F,,]/.[=G,,,=G,,]/.[A,,,A,,]/ .[B,,,B,,]/.[=C,,=C,]/.[D,,D,]/.[E,,E,]/ .[F,,F,]/.[G,,G,]/.[A,,A,]/.[B,,B,]/ .[C,=C]/.[D,D]/.[E,E]/.[F,=F]/ | %21
!ff! [E,,E,]/!mf!"^dim."[E,=G,]/[E,G,]/[E,G,]/!mp! [E,G,]/[E,G,]/[E,G,]/[E,G,]/ [=C,E,G,]/[C,E,G,]/!p![C,E,G,]/[C,E,G,]/ [E,G,=C]/[E,G,C]/[E,G,C]/[E,G,C]/ | %22
 [=G,D]4"^dolce"!pp! [G,B,D]2 [G,B,D][G,B,D] | %23
 [=C,=G,=C]2 [C,E,C]z/[C,E,C]/ [E,G,C]2 [E,G,C]z/[E,G,C]/ | [=G,D]4 [G,D]2 [G,D][G,D] | %25
 [=C,=G,=C]2 [C,E,C]z/[C,E,C]/ [E,G,C]2 [E,G,C]z/[E,G,C]/ | %26
 [=F,A,=C]2 [F,A,C]z/[F,A,C]/ [F,A,C]2 [F,A,C]z/[F,A,C]/ | %27
!ped! [=G,=CE]2 [G,CE] z/ [G,CE]/!ped-up! [G,B,D]2 [G,B,]!pp! z | %28
!p! [B,,,B,,]/[B,,,B,,]/[B,,,B,,]/[B,,,B,,]/ [B,,,B,,]/[B,,,B,,]/[B,,,B,,]/[B,,,B,,]/ [B,,,B,,] z z2 | %29
 [=C,,=C,]/[C,,C,]/[C,,C,]/[C,,C,]/ [C,,C,]/[C,,C,]/[C,,C,]/[C,,C,]/ z/ =G,/G,/G,/ G,/G,/G,/G,/ | %30
 [B,,,B,,]/[B,,,B,,]/[B,,,B,,]/[B,,,B,,]/ [B,,,B,,]/[B,,,B,,]/[B,,,B,,]/[B,,,B,,]/ [B,,,B,,] z z2 | %31
 [=C,,=C,]/[C,,C,]/[C,,C,]/[C,,C,]/"^cresc." [C,,C,]/[C,,C,]/[C,,C,]/[C,,C,]/ [E,,E,]2!p! [E,,E,]z/[E,,E,]/ | %32
 =C,2!mp! ^F, z/ F,/ D,2!f! =G,2 | %33
!ff! .[^G,,,^G,,]/.[G,,,G,,]/.[A,,,A,,]/.[B,,,B,,]/ .[^C,,^C,]/.[D,,D,]/.[E,,E,]/.[^F,,^F,]/ .[G,,G,]/.A,,/.B,,/.C,/!f! .D,/.E,/.F,/.G,/ | %34
!ff!!ped! [G,,G,]/!mf![G,B,]/[G,B,]/[G,B,]/ [G,B,]/[G,B,]/[G,B,]/[G,B,]/!ped-up!!ped! [G,B,]/[G,B,]/[G,B,]/[G,B,]/ [G,B,]/[G,B,]/[G,B,]/[G,B,]/!ped-up! | %35
!ff! .[^A,,,^A,,]/.[A,,,A,,]/.[B,,,B,,]/.[C,,C,]/ .[D,,D,]/.[E,,E,]/.[F,,F,]/.[G,,G,]/ .[A,,^A,]/.[B,,B,]/.[C,C]/.[D,D]/ .[E,E]/!f!.[E,,E,]/.[F,,F,]/.[G,,G,]/ | %36
!ped! [^A,,^A,]/[A,C]/[A,C]/[A,C]/ [A,C]/[A,C]/[A,C]/[A,C]/!ped-up!!ped! [A,C]/!mf![A,C]/[A,C]/[A,C]/ [A,C]/[A,C]/[A,C]/[A,C]/!ped-up! | %37
!ff! .[B,,,B,,]/.[B,,,B,,]/.[C,,C,]/!f!.[^D,,^D,]/ .[E,,E,]/.[F,,F,]/.[=G,,=G,]/.[A,,A,]/ .[B,,B,]/!f!.[B,,B,]/.[C,C]/.[D,^D]/ .E,/.[F,,F,]/.[G,,G,]/.[A,,A,]/ | %38
!ped! [B,,B,]/[=G,B,]/[G,B,]/[G,B,]/ [G,B,]/[G,B,]/[G,B,]/[G,B,]/!ped-up! [G,B,]/[G,B,]/[G,B,]/[G,B,]/ [G,B,]/[G,B,]/[G,B,]/[G,B,]/ | %39
!ff! [=C,,=C,]/.[=C,,,C,,]/.[D,,,D,,]/.[E,,,E,,]/ .[=F,,,=F,,]/!f!.[=G,,,=G,,]/.[A,,,A,,]/.[B,,,B,,]/!ff! .[C,,C,]/!f!.[D,,D,]/.[E,,E,]/.[F,,=F,]/ .[G,,=G,]/!mf!.[A,,A,]/.[B,,B,]/.[C,=C]/ | %40
 [=C,,=C,]/!mp![E,=G,]/[E,G,]/[E,G,]/"^dim." [E,G,]/[E,G,]/[E,G,]/[E,G,]/ [C,E,G,]/!p![C,E,G,]/[C,E,G,]/[C,E,G,]/ [C,E,G,]/[C,E,G,]/[C,E,G,]/[C,E,G,]/ | %41
 [=C,E,=G,=C]4!pp! [C,E,G,C]2 .[C,E,G,C].[C,E,G,C] | %42
 [=F,,=C,=F,]2 [F,,C,F,]z/[F,,C,F,]/ [A,,C,F,A,]2 [C,F,A,]z/[C,F,A,]/ | %43
 [=C,E,=G,=C]4 [C,E,G,C]2 .[C,E,G,C].[C,E,G,C] | %44
 [=F,,=C,=F,]2 [F,,C,F,]z/[F,,C,F,]/ [A,,C,F,A,]2 [A,,F,A,]z/[A,,F,A,]/ | %45
 [_B,,=F,=G,]2 [B,,F,G,]z/[B,,F,G,]/ [B,,F,G,]2 [B,,F,G,]z/[B,,F,G,]/ | %46
 [=C,=F,A,]2 [C,F,A,=C] z/ [C,F,A,C]/ [C,E,=G,C]2 [C,E,G,C]/ z/ z | %47
 [E,,,E,,]/[E,,,E,,]/[E,,,E,,]/[E,,,E,,]/ [E,,,E,,]/[E,,,E,,]/[E,,,E,,]/[E,,,E,,]/ [E,,,E,,]/ =C,/C,/C,/ C,/C,/C,/C,/ | %48
 [=F,,,=C,,=F,,]/[F,,,F,,]/[F,,,F,,]/[F,,,F,,]/ [F,,,F,,]/[F,,,F,,]/[F,,,F,,]/[F,,,F,,]/"^cresc." [F,,,F,,]/ [A,=C]/[A,C]/[A,C]/ [A,C]/[A,C]/[A,C]/[A,C]/ | %49
!p! [=F,,=F,]/[F,,F,]/[F,,F,]/[F,,F,]/ [F,,F,]/[F,,F,]/[F,,F,]/[F,,F,]/ [F,,F,]/ [A,=C]/[A,C]/[A,C]/ [A,C]/[A,C]/[A,C]/[A,C]/ | %50
!mp! [=F,,=F,]/[F,,F,]/[F,,F,]/[F,,F,]/ [F,,F,]/ [A,=C]/[A,C]/[A,C]/ [F,A,C]/[F,,F,]/[F,,F,]/[F,,F,]/ [F,,F,]/ [A,C]/[A,C]/[A,C]/ | %51
 z2 [A,=C]/[A,C]/[A,C]/[A,C]/!mf! z2 [A,C]/[A,C]/[=F,A,]/[F,A,]/ | %52
 [E,E]/!p!E,,/E,,/E,,/ E,,/[E,,,E,,]/[E,,,E,,]/[E,,,E,,]/ [E,,,E,,] z z2 | %53
!ped! E2 B,2 E,2 B,,2!ped-up! | %54
 [E,E]/!p!E,,/E,,/E,,/ E,,/[E,,,E,,]/[E,,,E,,]/[E,,,E,,]/ [E,,,E,,] z z2 | %55
!ped! E2 B,2 E,2 B,,2!ped-up! | E,,2!ped! z2 z/ E/E/E/ E/E/E/E/!ped-up! | E2 z2 z EEE | E2 z2 z4 | %59
 E2 z2 z4 | z2 z3/2 E/ E2 z2 | z2 z3/2 E/ E2 z2 ||[M:6/8]!p! z6 | z6 | E>EE E>EE | %65
!ped! [CE]>!mp![CE][CE] [A,CE]>!mf![A,CE][A,CE]!ped-up! |!p! [A,CE]6 | [A,B,D]6 | %68
 [A,C]2 [CE] [CE]>.[B,D].[A,C] | [A,C] [G,B,]2- [G,B,]>.[A,C].[A,B,D] | [A,CE]6 | [A,B,D]6 | %72
 [A,C]A,,C, E, z [E,E] | C>[B,D][CE] [DF][DF][DF] |!ped! [DF]6!ped-up! | [A,CE]3- [A,CE]2 [E,,E,] | %76
!f! [F,,F,][E,,E,].[C,,C,] [A,,,A,,]2 [A,CE] |!ped! [DF]6!ped-up! | [A,CE]3- [A,CE]2 [E,,E,] | %79
!f! [F,,F,]!p![E,,E,].[C,,C,] [A,,,A,,] E,[E,A,C] | [E,G,B,]3 [E,A,C]2 z/ [E,E]/ | %81
!ped! [E,G,B,E]3- [E,G,B,E]2!ped-up! [A,C] | [E,G,B,]3 [E,A,C]2 z/ [E,,E,]/ | %83
!f!!ped! [E,,E,]3- [E,,E,]>C,A,,!ped-up! |!ped! [E,,E,]3- [E,,E,]>C,^A,,!ped-up! | %85
!ped! [E,,E,]z/D,/B,,!ped-up!!ped! [G,,G,]z/E,/D,!ped-up! | %86
!ped! [B,,B,]z/G,/E,!ped-up!!ped! [D,D]z/!f!B,/G,!ped-up! | !fermata![E,G,B,D]3 z z2 | %88
!mf!!ped! [A,,,A,,]>[A,,C,E,][A,,C,E,] [A,,C,E,]>[A,,C,E,][A,,C,E,]!ped-up! | %89
!ped! [A,,D,F,]>[A,,D,F,][A,,D,F,] [A,,D,F,]>[A,,D,F,][A,,E,]!ped-up! | %90
!ped! [A,,E,]>[A,,E,][A,,E,] [A,,E,]>[A,,E,][A,,E,]!ped-up! | %91
!ped! [A,,E,]>[A,,E,][A,,E,] [A,,E,]>[A,,E,][A,,E,]!ped-up! | %92
!ped! [A,,,A,,]>[A,,C,E,][A,,C,E,] [A,,C,E,]>[A,,C,E,][A,,C,E,]!ped-up! | %93
!ped! [A,,D,F,]>[A,,D,F,][A,,D,F,] [A,,D,F,]>[A,,D,F,][A,,E,]!ped-up! | %94
 [A,,E,A,]>[A,,E,A,][C,E,A,]!f! [E,E]2 [E,,E,] | %95
 [A,,C,]>[A,,B,,D,][A,,C,E,] [A,,D,F,]>[A,,D,F,][A,,D,F,] | %96
 [A,,D,F,]>[A,,D,F,][A,,D,F,] [A,,D,F,]2 [A,,D,F,] | [A,,C,E,]2!f! [A,,,A,,] [A,,,A,,]>C,E, | %98
 =G,F,.D, [A,,D,F,]2 [A,,D,F,] | [A,,C,E,]2 [A,,,A,,] [A,,,A,,]>.C,.E, | A,C.E!mp! A,,>.B,,.E, | %101
 A,D.F!f! A,,>.D,.F, | A,B,.D A,,>.B,,.D, | A,C.E A,,>!p!.C,.E, | .A,.C.E .A,,.C,.E, | %105
 .A,.D.F .A,,.D,.F, | .A,.B,.D .A,,.B,,.D, | .A,.C.E .A,,.C,.E, | %108
!mp!!ped! [C,E,]/C/[C,E,]/C/[C,E,]/C/ [C,E,]/C/[C,E,]/C/[C,E,]/C/!ped-up! | %109
!ped! [B,,F,]/B,/B,,/B,/B,,/B,/!>(! B,,/B,/!p!B,,/B,/B,,/B,/!ped-up! | %110
!ped! [A,,C,]/A,/[A,,C,]/A,/[A,,C,]/A,/ [A,,C,]/A,/[A,,C,]/!>)!A,/[A,,C,]/A,/!ped-up! | %111
!p! [G,,G,]2 [^B,^D] G,2 [B,D] | [G,,G,]2 [CE] G,2 [CE] | [G,,G,]2 [^B,^D] G,2 [B,D] | %114
!ped! C,,/C,/C,,/C,/C,,/C,/ E,,/E,/E,,/E,/E,,/E,/!ped-up! | [_E,,_E,]2 [=G,_B,_E] E,2 [G,B,E] | %116
 [_E,,_E,]2 [^G,=B,^D] E,2 [G,B,D] | [_E,,_E,]2 [=G,_B,_E] E,2 [G,B,E] | %118
!ped! [^G,,^G,]/=B,/G,/B,/G,/B,/ G,/B,/G,/B,/G,/B,/!ped-up! | %119
 [F,,,F,,]2 [F,,,F,,] [F,,F,]2 [F,,F,] | [F,,F,] [E,,E,]2!ped! E,/B,/E,/B,/E,/B,/!ped-up! | %121
!ff!!8vb(! [^D,,,^D,,]2 [D,,,D,,]!8vb)! [D,,^D,]2 [D,,D,] | %122
 [^D,,^D,] [C,,C,]2!ped! [C,E,]/A,/[C,E,]/A,/[C,E,]/A,/!ped-up! | %123
 .[B,,F,A,].[B,,F,A,] z .[B,,F,A,].[B,,F,A,] z | .[B,,E,G,].[B,,E,G,] z .[B,,E,G,].[B,,E,G,] z | %125
 .[B,,F,A,].[B,,F,A,] z .[B,,F,A,].[B,,F,A,] z | .[B,,E,G,].[B,,E,G,] z .[B,,E,G,].[B,,E,G,] z | %127
!ff! [C,,C,]3- [C,,C,]2!mf! [=C,,=C,] |!p! [B,,,B,,]3- [B,,,B,,]2 ^C,/^D,/ | %129
 [E,,E,]3"^dolce"!ped! [E,G,]>[B,,E,][B,,E,]!ped-up! |!ped! [F,A,]>[B,,F,][B,,F,]!ped-up! [G,B,]3 | %131
 [E,,E,]3!ped! [G,,G,]3!ped-up! |!ped! [B,,B,]3!ped-up!!ped! [B,,,B,,]3!ped-up! | %133
!f!!ped! [E,,E,]>E,E,!ped-up!!ped! [E,,E,]>[E,,E,][E,,E,]!ped-up! | %134
!ped! [E,,E,]>[E,,E,][E,,E,]!ped-up!!ped! [E,,E,]>[E,,E,][=D,,=D,]!ped-up! | %135
!ped! [=C,,=C,]>=C=G,!ped-up!!ped! E,>E,C,!ped-up! | %136
!ped! =G,,>G,,E,,!ped-up!!ped! [=C,,=C,]>[C,,C,][=G,,,G,,]!ped-up! | %137
 [=C,,=C,]2 z!mf! z3/2!>(! [=G,,,=G,,]/[G,,,G,,] | [=C,,=C,]2 z z3/2!mp! [=G,,=G,]/[G,,G,]!>)! | %139
 =C,2 z4 |!pp! [=C,,=C,]2 z4 | %141
[K:treble]!pp!!ped! [=C^DF]/A/[CDF]/A/[CDF]/A/!ped-up! [CDF]/A/[CDF]/A/[CDF]/A/ | %142
 [=C^DF]/A/[CDF]/A/[CDF]/A/ [CDF]/A/[CDF]/A/[CDF]/A/ | %143
!ped! [=C^DF]/A/[CDF]/A/[CDF]/A/!ped-up! [CDF]/A/[CDF]/A/[CDF]/A/ | %144
 [=C^DF]/A/[CDF]/A/[CDF]/A/ [CDF]/A/[CDF]/A/[CDF]/A/ | %145
"^cresc. poco a poco"!ped! [B,^DF] z[K:bass]!mp! ^D,,/E,,/ F,,!ped-up! z E,,/F,,/ | %146
!ped! G,, z E,,/F,,/ G,,!ped-up! z F,,/G,,/ |!ped! A,, z!mp! F,,/G,,/ A,,!ped-up! z G,,/A,,/ | %148
!ped! B,, z G,,/A,,/ B,,!ped-up! z A,,/B,,/ |!ped! C, z!mf! A,,/B,,/ C,!ped-up! z B,,/C,/ | %150
!ped! ^D, z!f! B,,/C,/ D,!ped-up! z!ff! C,/D,/ |!ff!!ped! [E,,E,]3/2 E/B, G,>G,E, | %152
 B,,>B,,G,, E,,!ped-up! z/ [E,G,B,]/[E,G,B,] |!ped! [A,,,A,,]>A,F, C,>C,A,, | %154
 F,,>F,,C,, A,,,!ped-up! z/ [E,F,C]/[E,F,C] | %155
!pp! [A,,=C,]/=F,/[A,,C,]/F,/[A,,C,]/F,/ [A,,C,]/F,/[A,,C,]/F,/[A,,C,]/F,/ | %156
!ped! [B,,F,]/A,/[B,,F,]/A,/[B,,F,]/A,/!p!!<(! [B,,F,]/A,/B,,/!mp!A,/G,/F,/!ped-up!!<)! | %157
!ff!!ped! [E,,E,]3/2 E/B, G,>G,E, | B,,>B,,G,, E,,!ped-up! z/ [E,G,B,]/[E,G,B,] | %159
!ped! [A,,,A,,]>A,F, C,>C,A,, | F,,>F,,C,, A,,,!ped-up! z/ [E,F,C]/[E,F,C] | %161
!pp! [A,,=C,]/=F,/[A,,C,]/F,/[A,,C,]/F,/ [A,,C,]/F,/[A,,C,]/F,/[A,,C,]/F,/ | %162
"^cresc." ^D,3!mf! B,3 | %163
!mf!!ped! E,,/B,/[E,G,]/B,/[E,G,]/B,/!ped-up!!ped! G,,/B,/[E,G,]/B,/[E,G,]/B,/!ped-up! | %164
!ped! B,,/B,/[F,A,]/B,/[F,A,]/B,/!ped-up! [F,A,]/B,/z/[B,,B,]/[B,,B,] | %165
!ff!!ped! [B,,B,]3 [B,,B,]>[A,,A,][G,,G,]!ped-up! | %166
!ped! [A,,A,]3 [A,,A,]>[C,,C,][^D,,^D,]!ped-up! | %167
!ped! [E,,E,] [E,G,]/B,/[E,G,]/B,/!ped-up!!ped! [F,A,]/B,/ z/ [B,,B,]/[B,,B,]!ped-up! | %168
!ped! [B,,B,]2 [G,,G,]!ped-up!!ped! [A,,A,]>[C,,C,][^D,,^D,]!ped-up! | %169
!ped! [E,,E,] [E,G,]/B,/[E,G,]/B,/!ped-up!!ped! [F,A,]/B,/ z/ [B,,B,]/[B,,B,]!ped-up! | %170
 [E,,E,]2 E [F,,F,] E2 | [G,,G,]2 E [A,,A,]2 E | [B,,B,]2 [E,E] [C,C]2 [E,E] | %173
 [D,D]2 [E,E] [^D,^D]2 [E,E] | z6 | z6 | [E,,E,]2 =G, [=F,,=F,]2 G, | %177
 [^F,,^F,]2 =G, [=G,,G,]2 [G,=G] | z6 | z6 | z6 | z6 | z6 | z2 z [=G,,=G,]>[G,,G,][G,,G,] | %184
 [=G,,,=G,,]3- [G,,,G,,]>=F,,E,, | =F,,>=G,,A,, B,,>=C,D, | E,>=F,=G, A,>B,=C | D>=CB, A,>=G,=F, | %188
 =G,3- G,>=F,E, | [B,,=F,]>A,,[=G,,=G,] [G,,G,]2 z | =G,3- G,>=F,E, | =F,>=G,A, B,>=CD | %192
 =C2 z C2 z | z3/2 A,/=G, G,2 z | %194
 [=C,=G,]3/2"^cresc. poco a poco"!ped! [=C,,=G,,C,]/[C,,G,,C,] [C,,G,,C,]>[C,,G,,C,][C,,G,,C,] | %195
 [=C,,=G,,=C,]>[C,,G,,C,][C,,G,,C,] [C,,G,,C,]>[C,,G,,C,]!ped-up![C,,G,,C,] | %196
!ped! [=C,,^F,,=C,]>[C,,F,,C,][C,,F,,C,]!mp! [C,,F,,C,]>[C,,F,,C,][C,,F,,C,] | %197
 [=C,,F,,=C,]>[C,,F,,C,][C,,F,,C,] [C,,F,,C,]>[C,,F,,C,][C,,F,,C,]!ped-up! | %198
!ped! [=C,,=F,,=C,]>[C,,F,,C,][C,,F,,C,]!mf! [C,,F,,C,]>[C,,F,,C,][C,,F,,C,] | %199
 [=C,,=F,,=C,]>[C,,F,,C,][C,,F,,C,] [C,,F,,C,]>[C,,F,,C,][C,,F,,C,]!ped-up! | %200
!ped! [=C,,E,,=C,]2 z!ped-up! [C,=C]>[C,C] z |!ped! [=G,,=G,]3 [G,,G,]>[G,,G,]!ped-up!E, | %202
!ped! [E,,E,]2 z/ =C,/ [=G,,=G,]2 z/ G,,/ | [E,,E,]2 z/ E,,/ [=C,,=C,]2 z/ C,,/!ped-up! | %204
!ff! [=G,,,=G,,]3/2 [=G,D=F]/[G,DF] [G,DF]>[G,DF][G,DF] | %205
 [=G,D=F]>[G,DF][G,DF] [G,DF]>[G,DF][G,DF] |!ped! [=G,D=F]2 z [=G,,G,]>[=F,F]D!ped-up! | %207
!ped! [D,D]3- [D,D]>DB,!ped-up! |!ped! [B,,B,]2 z/ =F,,/ [D,,D,]2 z/ D,,/ | %209
 [B,,,B,,]2 z/ B,,,/ [=G,,,=G,,]2 z/ G,,/!ped-up! | %210
 [^G,,,^G,,]3/2 [G,B,E]/[G,B,E] [G,B,E]>[G,B,E][G,B,E] | %211
 [G,B,E]>[G,B,E][G,B,E] [G,B,E]>[G,B,E][G,B,E] |!ped! [G,B,E]2 z [G,,G,]>[E,E]B,!ped-up! | %213
!ped! [B,,B,]3- [B,,B,]>[B,,B,]G,!ped-up! |!ped! [G,,G,]2 z/ E,/ [B,,B,]2 z/ B,,/ | %215
 [G,,E,G,]2 z/ G,,/ [E,,E,]2 z/ [E,,E,]/!ped-up! | [E,,E,]>[E,,E,][E,,E,] E>EE | %217
 [C,,C,]>[C,,C,][C,,C,] =F>FF |!fff! [C,,C,]>[C,,C,][C,,C,] =F>FF | _D6 |!ped! =C6!ped-up! | %221
!pp! =C>DE =F>EF |[K:treble] =G>[G_B][GB] [=FA]>[DF][DF] | %223
 [=CE][K:bass] z/ [D,_B,]/[E,B,] [=F,A,]z/[A,,F,]/[=B,,F,] | [=C,E,]2 z E>D=C | %225
 =Gz/[D=F]/[DF] [=CE]z/[=G,C]/[G,C] | [=G,B,] z/ [A,,,A,,]/[B,,,B,,] [=C,,=C,] z/ [E,=C]/[^F,C] | %227
[K:treble] D>E^F =G>FG | A>[A=c][Ac] [=G_B]z/[DG]/[DG] | %229
[K:bass] [D^F]z/[E,=C]/[^F,C] [=G,_B,]z/[_B,,G,]/[=C,G,] | [D,=F,]2 z =F>ED | %231
 z3/2 [E=G]/[EG] [D=F]z/D/D | [A,^C] z/ [B,,,B,,]/[C,,C,] [D,,D,]z/[=F,,D,]/[=G,,D,] | %233
 [A,,^C,] z/ [E=G]/[EG] [D=F]z/D/D | [A,^C] z/ [B,,,B,,]/[C,,C,] [D,,D,]z/[=F,,D,]/[=G,,D,] | %235
!p!"^cresc. poco a poco" [A,,^C,]z/[A,,C,]/[B,,D,] [C,E,]z/[B,,D,]/[C,E,] | %236
 [D,=F,]z/[C,E,]/[D,F,] [E,=G,]z/[D,F,]/[E,G,] | A,>[A,_B,][A,B,] A,>[A,B,][A,B,] | %238
 [A,_B,]>[A,B,][A,B,] [A,B,]>[A,B,][A,B,] | %239
!mp! [=F,A,_B,]z/[_B,,D,]/[=C,E,] [D,F,]z/[C,E,]/[D,F,] | %240
 [E,=G,]z/[D,=F,]/[E,G,] [F,A,]z/[E,G,]/[F,A,] | _B,>[B,=C][B,C] [B,C]>[B,C][B,C] | %242
 [_B,=C]>[B,C][B,C] [B,C]>[B,C][B,C] |!mf! [=G,_B,=C] z/ [=C,E,]/[D,=F,] [E,G,]z/[D,F,]/[E,G,] | %244
 [=F,A,]z/[E,=G,]/[F,A,] [G,_B,]z/[F,A,]/[G,B,] | =C>[CD][CD] [CD]>[CD][CD] | %246
 [=CD]>[CD][CD] [CD]>[CD][CD] |!f! [A,=CD] z/ [D,^F,]/[E,=G,] [F,A,]z/[E,G,]/[F,A,] | %248
 [=G,_B,]z/[F,A,]/[G,B,] [A,=C]z/[G,B,]/[A,C] | %249
!ped! [_B,D]>[_B,,=G,B,][A,,A,]!ped-up! [B,,G,B,]z/[B,,G,]/[A,,G,] | %250
!ped! [=B,,=G,]z/[B,,G,B,]/[^A,,G,^A,]!ped-up! [B,,G,B,]z/[B,,G,]/[B,,G,] | %251
!ped! [=C,=G,]z/[C,G,=C]/[B,,G,B,]!ped-up! [C,G,C]z/[C,G,]/[B,,G,] | %252
!ped! [^C,A,]z/[C,A,C]/[^B,,A,^B,]!ped-up! [C,A,C]z/[C,A,]/[C,A,] | %253
!ped! [D,A,] z/ [D,,A,,D,]/[C,,A,,C,]!ped-up! [D,,A,,D,]z/[D,,A,,D,]/[C,,A,,C,] | %254
!ped! [D,,A,,D,] z/ [D,,A,,D,]/[C,,A,,C,]!ped-up! [D,,A,,D,]z/[D,,A,,D,]/[C,,A,,C,] | %255
 [D,,A,,D,]3!ped! =F>ED!ped-up! |!ped! [=F,D]>E,D,!ped-up! D,>=C,B,, | %257
!ff!!ped! [=C,,A,,=C,]z/[C,,A,,C,]/[B,,,B,,]!ped-up! [C,,A,,C,]z/[C,,A,,C,]/[B,,,B,,] | %258
!ped! [=C,,A,,=C,]z/[C,,A,,C,]/[B,,,B,,]!ped-up! [C,,A,,C,]z/[C,,A,,C,]/[B,,,B,,] | %259
 [=C,,A,,=C,]3!ped! E>D=C!ped-up! |!ped! =C3!ped-up! =C,>B,,[=C,,A,,] | %261
!ff!!ped! [B,,,E,,B,,]z/[B,,,E,,B,,]/[^A,,,E,,^A,,]!ped-up! [B,,,E,,B,,]z/[B,,,E,,B,,]/[A,,,E,,A,,] | %262
!ped! [B,,,E,,B,,]z/[B,,,E,,B,,]/[^A,,,E,,^A,,]!ped-up! [B,,,E,,B,,]z/[B,,,E,,B,,]/[A,,,E,,A,,] | %263
 [B,,,E,,B,,] z z z z/ [B,,B,]/[=C,=C] | [D,D] z z z z/ [^G,,^G,]/[A,,A,] | %265
 [B,,B,] z z z z/ [D,,D,]/[E,,E,] | [=F,,=F,] z/ z/ z z z/ G,,/A,, | %267
 [B,,,B,,]z/G,,/A,, [B,,,B,,]z/A,,/B,, | [=C,,=C,]z/A,,/B,, [C,,C,]z/B,,/[^C,,^C,] | %269
 [D,,D,]z/B,,/C, [D,,D,]z/C,/[^D,,^D,] | [E,,E,]z/C,/^D, [E,,E,]z/C,/D, | %271
 [E,,E,]z/[C,,C,]/[D,,D,] [E,,E,]z/[C,,C,]/[D,,D,] | %272
 [E,,E,]z/[C,,C,]/[D,,D,] [E,,E,]z/[C,,C,]/[D,,D,] |!mf! [E,,E,]2 z4 | %274
!<(! z3 E,,/F,,/G,,/A,,/(3B,,/C,/D,/!<)! |!f! [C,E,]>[C,E,][C,E,] [C,E,]>[C,E,][C,E,] | %276
 [A,,C,E,]>[A,,C,E,][A,,C,E,]!ped! [A,,C,E,]>[A,,C,E,][A,,C,E,] | %277
!ff! [A,,,A,,]z/!f![A,,C,E,]/[A,,C,E,]!ped-up! [A,,C,]z/[B,,D,]/[C,E,] | %278
 [B,,D,]z/[C,E,]/[D,F,] [E,G,]z/E,/[D,E,] |!ff! [C,E,]z/!f!E,/[D,E,] [C,E,]>[B,,E,][A,,E,] | %280
 [G,,E,]z/[F,,E,]/[E,,E,] [D,E,]z/[C,E,]/[B,,E,] | %281
 [A,,C,E,]z/!f![A,,C,]/[G,,B,,] [A,,C,]z/[B,,D,]/[C,E,] | %282
 [B,,D,]z/[C,E,]/[D,F,] [E,G,]z/E,/[D,E,] | [C,E,]z/!f![B,,D,]/[A,,C,] E,2 E,, | %284
!ped! [A,,,A,,]z/C,,/E,,!ped-up! A,,z/C,/E, |!ped! F,z/D,/A,,!ped-up! F,,z/D,,/A,,, | %286
!ped! A,,,z/B,,,/E,,!ped-up! A,,z/C,/E, |!ped! A,,,z/E,,/=G,,!ped-up! [A,,C,]z/E,/=G, | %288
!ped! F,z/D,/A,,!ped-up! F,,z/D,,/A,,, |!ped! A,,,z/C,,/E,,!ped-up! A,,z/C,/E, | %290
!ped! A,,,z/C,,/E,,!ped-up! A,,z/B,,/C, | [D,E,]z/B,,/G,, [C,E,]z/A,,/E,, | %292
!ped! [E,,E,]z/G,,/B,,!ped-up! [E,,E,]z/A,,/C, | [D,E,]z/B,,/G,, [C,E,]z/A,,/E,, | %294
!ped! [E,,E,]z/G,,/B,,!ped-up! [E,,E,]z/A,,/C, |!ped! [E,,E,]z/A,,/C,!ped-up! [E,,E,]z/^A,,/C, | %296
!ped! [E,,E,]z/B,,/D, [E,,E,]z/G,,/B,, | [B,,,B,,]z/E,,/G,, [G,,,G,,]z/B,,,/E,, | %298
 !fermata![E,,,E,,]3 z z3/2!ped-up!!ped! [A,,A,]/ | !fermata![A,,A,]3!ped-up!"^dolce" z z2 | %300
!pp! [D,,A,,F,]6 | [D,,A,,E,]6 | [D,,A,,F,]2!p!!ped! F F>ED!ped-up! | C>B,A, =G,>F,E, | %304
!pp!!ped! [D,,A,,=F,]6!ped-up! |!ped! [D,,A,,E,]6!ped-up! | [D,,A,,=F,]2!p! F, A,2 [A,,=G,] | %307
!p! [D,=F,]>[E,=G,][F,A,] [G,_B,]>[G,B,][G,B,] | [=G,,=G,]6 | [D,,=F,]6 | [_B,,_B,]6 | [=F,,A,]6 | %312
 [D,A,D]6 | [A,,E,=C]6 | A,,6- | A,,6- | A,,6- | A,,6 | %318
"^cresc. poco a poco"!8vb(! A,,,/A,,/A,,,/A,,/A,,,/A,,/ A,,,/A,,/A,,,/A,,/A,,,/A,,/ | %319
!mp! A,,,/A,,/A,,,/A,,/A,,,/A,,/ A,,,/A,,/A,,,/A,,/A,,,/A,,/!8vb)! | %320
!mf!!8vb(! A,,,/A,,/A,,,/A,,/A,,,/A,,/ A,,,/A,,/A,,,/A,,/A,,,/A,,/ | %321
!f! A,,,/A,,/A,,,/A,,/A,,,/A,,/ A,,,/A,,/A,,,/A,,/A,,,/A,,/!8vb)! | %322
!ped! [A,,^D,F,A,]2!mf!!8vb(! A,,,/A,,/ A,,,/A,,/A,,,/A,,/A,,,/A,,/!ped-up! | %323
!ped! =G,,,/=G,,/G,,,/G,,/G,,,/G,,/ G,,,/G,,/G,,,/G,,/G,,,/G,,/!ped-up! | %324
!ped! =F,,,/=F,,/F,,,/F,,/F,,,/F,,/ F,,,/F,,/F,,,/F,,/F,,,/F,,/!8vb)!!ped-up! | %325
 [E,,E,]2 [G,B,] E,2 [G,B,] | E,2 [A,=C] E,2 [A,C] | E,2 [G,B,E] E,2 [G,B,E] | %328
 E,2 [A,=CE] E,2 [A,CE] | E,2"^cresc." [G,B,E] E,2 [G,B,E] | %330
!mf!!ped! [A,,C,]/A,/[A,,C,]/[A,,C,]/A,/[A,,C,]/ [A,,C,]/A,/[A,,C,]/[A,,C,]/A,/[A,,C,]/!ped-up! | %331
!ped! [G,,B,,]/G,/[G,,B,,]/[G,,B,,]/G,/[G,,B,,]/!ped-up! [G,,B,,]/G,/[G,,B,,]/[G,,B,,]/G,/[G,,B,,]/ | %332
 G,,/G,/F,,/!ped!F,/[F,,A,,]/F,/ [F,,A,,]/F,/F,,/F,/F,,/F,/!ped-up! | %333
!ped! [E,,G,,]/E,/[E,,G,,]/[E,,G,,]/E,/[E,,G,,]/ [E,,G,,]/E,/[E,,G,,]/[E,,G,,]/E,/[E,,G,,]/!ped-up! | %334
 E,,/E,/D,,/!ped!D,/[D,,F,,]/F,/!ped-up!!ped! ^D,,/^D,/[D,,F,,]/D,/[D,,F,,]/D,/!ped-up! | %335
 .[E,,E,].[E,G,B,] z .[E,B,D].[E,B,D] z | .[E,A,C].[E,A,C] z .[E,A,C].[E,A,C] z | %337
 .[E,G,B,].[E,G,B,] z .[E,B,D].[E,B,D] z | .[E,A,C].[E,A,C] z .[E,A,C].[E,A,C] z | %339
!ff! [F,,F,]3- [F,,F,]2!mp! [=F,,=F,] | [E,,E,]3- [E,,E,]2 F,,/G,,/ | %341
!ped! A,,3"^dolce" [A,C]>[E,A,][E,A,]!ped-up! | [B,D]>[E,B,][E,B,]!ped! [CE]3 | %343
 [A,,,A,,]3 [C,,C,]3 | [E,,E,]3 [E,,,E,,]3!ped-up! | %345
!f!!ped! [A,,,A,,] A,A, [A,,A,]>[A,,A,][A,,A,]!ped-up! | %346
 [A,,A,]>[A,,A,][A,,A,] [A,,A,]>[A,,A,][=G,,=G,] |!ped! [=F,,A,,=F,]3/2 =F/=C!ped-up! A,>A,F, | %348
 =C,>C,A,, =F,,>F,,[=C,,C,] | =F,,2 z!mf! z3/2"^dim." [=C,,=C,]/[C,,C,] | =F,,2 z z3/2 =C,/C, | %351
 [=F,,=F,]2 z4 |!pp! [=F,,=F,]2 z4 | %353
!pp!!ped! [G,B,D]/=F/[G,B,D]/[G,B,D]/F/[G,B,D]/!ped-up! [G,B,D]/F/[G,B,D]/[G,B,D]/F/[G,B,D]/ | %354
!ped! [G,B,D]/=F/[G,B,D]/[G,B,D]/F/[G,B,D]/!ped-up! [G,B,D]/F/[G,B,D]/[G,B,D]/F/[G,B,D]/ | %355
!ped! [G,B,D]/=F/[G,B,D]/[G,B,D]/F/[G,B,D]/!ped-up! [G,B,D]/F/[G,B,D]/[G,B,D]/F/[G,B,D]/ | %356
!ped! [G,B,D]/=F/[G,B,D]/[G,B,D]/F/[G,B,D]/!ped-up! [G,B,D]/F/[G,B,D]/[G,B,D]/F/[G,B,D]/ | %357
!ped!"^cresc. poco a poco" [G,B,] z G,,,/A,,,/ B,,,!ped-up! z A,,,/B,,,/ | %358
!ped! C,, z A,,,/B,,,/ C,,!ped-up! z B,,,/C,,/ |!ped! .D,, z B,,,/C,,/ .D,,!ped-up! z C,,/D,,/ | %360
!ped! .E,, z C,,/D,,/ .E,,!ped-up! z D,,/E,,/ |!ped! .F,, z D,,/E,,/ .F,,!ped-up! z E,,/F,,/ | %362
!ped! .G,, z E,,/F,,/ .G,,!ped-up! z F,,/G,,/ |!ff!!ped! [A,,,A,,]3/2 A,/E, C,>C,A,, | %364
 E,,>E,,C,, [A,,,A,,] z/!ped-up! [A,C]/[A,C] |!ped! [D,D]>DA, F,>F,D, | %366
 A,,>A,,F,, D,,!ped-up! z/ [A,B,]/[A,B,] | %367
!pp! [D,=F,]/_B,/[D,F,]/[D,F,]/B,/[D,F,]/ [D,F,]/B,/[D,F,]/[D,F,]/B,/[D,F,]/ | %368
"^cresc."!ped! [E,_B,]/D/[E,B,]/[E,B,]/D/[E,B,]/!p! [E,B,]/D/[E,B,]/!mp![E,B,]/D/[E,B,]/!ped-up! | %369
!ff!!ped! [A,,A,]>A,E, C,>C,A,, | E,,>E,,C,, [A,,,A,,]!ped-up! z/ [A,C]/[A,C] | %371
!ped! [D,D]>DA, F,>F,D, | A,,>A,,F,, D,,!ped-up! z/ [A,B,]/[A,B,] | %373
!pp! [D,=F,]/_B,/[D,F,]/[D,F,]/B,/[D,F,]/ [D,F,]/B,/[D,F,]/[D,F,]/B,/[D,F,]/ | %374
"^cresc." [E,G,]3 [E,,E,]3 |!mf!!ped! A,,/E/[A,C]/E/[A,C]/E/ C,/E/[A,C]/E/[A,C]/E/!ped-up! | %376
!ped! E,/E/[B,D]/E/[B,D]/E/ [B,D] z/!ped-up! .[E,E]/.[E,E] | %377
!ff!!ped! [E,E]3- [E,E]>[D,D][C,C]!ped-up! |!ped! [D,D]3- [D,D]>!ped-up![F,,F,][G,,G,] | %379
!ped! [A,,A,] [A,C]/E/[A,C]/E/!ped-up!!ped! [B,D] z/ [E,E]/[E,E]!ped-up! | %380
!ff!!ped! [E,E]2 [C,C]!ped-up! [D,D]>[F,,F,][G,,G,] | %381
!ped! [A,,A,] [A,C]/E/[A,C]/E/!ped-up!!ped! [B,D] z/ [E,E]/[E,E]!ped-up! | %382
!ff!!ped! [A,,,A,,]2 A,,!ped-up! [B,,,B,,]2 A,, | [C,,C,]2 A,, [D,,D,]2 A,, | %384
 [E,,E,]2 A,, [F,,F,]2 A,, | [G,,G,]2 A,, [A,,A,]2 A,, | z6 | z6 | [_A,,_A,]2 A, z3 | z6 | %390
!pp! [_A,,,_A,,]>[A,,,A,,][A,,,A,,] [A,,,A,,]>[A,,,A,,][A,,,A,,] | %391
!ped! [_A,,,_A,,]>[A,,,A,,][A,,,A,,] [A,,,A,,]>[A,,,A,,][A,,,A,,] | %392
 [_A,,,_A,,]>A,,A,, [A,,,A,,]>A,,A,,!ped-up! | [_A,,,_A,,]>A,,A,, [A,,,A,,]>A,,A,, | %394
!ped! [=G,,,=G,,]>G,,G,, [G,,,G,,]>G,,G,,!ped-up! | [=G,,,=G,,]>G,,G,, [G,,,G,,]>G,,G,, | %396
 [=F,,,=F,,]>F,,F,, [F,,,F,,]>F,,F,, | [=F,,,=F,,]>F,,F,, [F,,,F,,]>F,,F,, | %398
 [E,,,E,,]>E,,E,, [E,,,E,,]>E,,E,, | [E,,,E,,]>E,,E,, [E,,,E,,]>E,,E,, |!pp! E,,6- | E,,6 | E,,6- | %403
 E,,6 | E,,6- | E,,6 | E,,6- | E,,6 | E,,6- | E,,6 | E,,6- | E,,6 | E,,6- | E,,6 | E,,6- | E,,6 | %416
 E,,6- | E,,6 | E,,6- | E,,6 | %420
"^cresc."!ped! [D,,D,]3-!ped-up!!ped! [D,,D,][C,,C,][^B,,,^B,,]!ped-up! | %421
!ped! [D,,D,][C,,C,][^B,,,^B,,]!ped-up!!ped! [D,,D,][C,,C,][B,,,B,,]!ped-up! | %422
!ped! [C,,C,]>[C,E,][C,E,] [C,E,A,]>[C,E,A,][C,E,A,] | %423
 [C,E,A,]>[C,E,A,][C,E,A,] [C,E,A,]>[C,E,A,][C,E,A,]!ped-up! | %424
!ped! [D,,D,]>[D,F,A,][D,F,A,] [D,F,A,]>[D,F,A,][D,F,A,] | %425
 [D,F,A,]>[D,F,A,][D,F,A,] [D,F,A,]>[D,F,A,][D,F,A,]!ped-up! | %426
!ped! [E,,E,]2 z z3/2 A,,/[E,,E,]!ped-up! |!ped! [E,,E,]2 z z3/2 E,,/[C,,C,]!ped-up! | %428
!ped! [C,,C,]2 z/ A,,/ [E,,E,]2 z/ E,,/ | [C,,C,]2 z/ C,,/ [A,,,A,,]2!ped-up! z/ A,,/ | %430
 [F,,F,]2 z/ [F,,F,]/ [E,,E,]2 z/ [E,,E,]/ | %431
!ped! [^D,,^D,] z/ [^DFA]/[DFA]!ped-up!!ped! [DFA] z/ [D,,D,]/[D,,D,]!ped-up! | %432
!ped! [^D,,^D,] z/ [^DFA]/[DFA]!ped-up!!ped! [DFA] z/ [D,,D,]/[D,,D,]!ped-up! | %433
!ped! [=D,,=D,]3/2 [=DE]/[DE]!ped-up!!ped! [DE] z/ [D,,D,]/[D,,D,]!ped-up! | %434
!ped! [=D,,=D,]3/2 [=DE]/[DE]!ped-up!!ped! [DE] z/ [D,,D,]/[D,,D,]!ped-up! | %435
!ped! [C,,C,] z/ [CE]/[CE]!ped-up!!ped! [DF] z/ [D,,D,]/[D,,D,]!ped-up! | %436
!ped! [E,,E,] z/ [E,CE]/[E,CE]!ped-up!!ped! [^E,B,D] z/ [^E,,E,]/[E,,E,]!ped-up! | %437
 [F,,F,]z/[D,,D,]/[D,,D,] [D,,D,]z/[E,,E,]/[E,,E,] | %438
 [E,,E,]z/[^E,,^E,]/[E,,E,] [E,,E,]z/[F,,F,]/[F,,F,] | %439
 [F,,F,]z/[D,,D,]/[D,,D,] [D,,D,]z/[E,,E,]/[E,,E,] | %440
 [E,,E,]z/[E,,E,]/[E,,E,] [E,,E,]z/[A,,,A,,]/[A,,,A,,] | %441
!ped! [A,,,A,,] z/ E/E!ped-up! [CE]z/[B,DE]/[A,CE] | %442
 [E,G,B,E] z/ [E,,E,]/[E,,E,] [E,,E,]z/[E,,E,]/[E,,E,] | %443
!ped! [A,,,A,,] z/ E/E!ped-up! [CE]z/[B,DE]/[A,CE] | %444
 [E,G,B,E] z/ [E,,E,]/[E,,E,] [E,,E,]z/[E,,E,]/[E,,E,] | %445
!ped! [A,,,A,,]z/[A,,A,]/[A,,A,] [A,,A,]z/[A,,A,]/[A,,A,] | %446
 [A,,A,]z/[A,,,A,,]/[A,,,A,,] [A,,,A,,]z/[A,,,A,,]/[A,,,A,,] | [A,,,A,,]2!ped-up! z2 z2 | %448
 [E,,E,]2 z2 z2 | [A,,,A,,]2 z2 z2 |] %450
V:4
 x8 | x8 | [EB]2 z2 x4 | x8 | A4 x4 | x8 | x8 | x4 e2 =g2 | x8 | x8 | x8 | x8 | x8 | x8 | x8 | x8 | %16
 x8 | x8 | x8 | x8 | x8 | x8 | x8 | x8 | x8 | x8 | x8 | x8 | x2 D6 | x8 | z2 D6 | x8 | x8 | x8 | %34
 x8 | x8 | x8 | x8 | x8 | x8 | x8 | x8 | x8 | x8 | x8 | x8 | x8 | x8 | x8 | x8 | x8 | x8 | x8 | %53
 x8 | x8 | x8 | x8 | x8 | x8 | x8 | x8 | x8 ||[M:6/8] x6 | x6 | x6 | x6 | x6 | x6 | x6 | x6 | x6 | %71
 x6 | x6 | x6 | x6 | x6 | x6 | x6 | x6 | x6 | x6 | x6 | x6 | x6 | x6 | x6 | x6 | x6 | x6 | x6 | %90
 x6 | x6 | x6 | x6 | x6 | x6 | x6 | x6 | x6 | x6 | x6 | x6 | x6 | x6 | x6 | x6 | x6 | x6 | x6 | %109
 x6 | x6 | x6 | x6 | x6 | x6 | x6 | x6 | x6 | x6 | x6 | x6 | x6 | x6 | x6 | x6 | x6 | x6 | x6 | %128
 x6 | x6 | x6 | x6 | x6 | x6 | x6 | x6 | x6 | x6 | x6 | x6 | x6 | x2[K:bass] x5/2[K:treble] x3/2 | %142
 x6 | x2[K:bass] x5/2[K:treble] x3/2 | x6 | x6 | x6 | x6 | x6 | x6 | x6 | x6 | x6 | x6 | x6 | x6 | %156
 x6 | x6 | x6 | x6 | x6 | x6 | x6 | x6 | x6 | x6 | x6 | x6 | x6 | x6 | x6 | x6 | x6 | x6 | x6 | %175
 x6 | x6 | x6 | x6 | x6 | x6 | x6 | x6 | x6 | x6 | x6 | x6 | x6 | x6 | x6 | x6 | x6 | x6 | x6 | %194
 x6 | x6 | x6 | x6 | x6 | x6 | x6 | x6 | x6 | x6 | x6 | x6 | x6 | x6 | x6 | x6 | x6 | x6 | x6 | %213
 x6 | x6 | x6 | x6 | x6 | x6 | x6 | x6 | x6 | x6 | x6 | x6 | x6 | x6 | x6 | x6 | x6 | x6 | x6 | %232
 x6 | x6 | x6 | x6 | x6 | x6 | x6 | x6 | x6 | x6 | x6 | x6 | x6 | x6 | x6 | x6 | x6 | x6 | x6 | %251
 x6 | x6 | x6 | x6 | x6 | x6 | x6 | x6 | x6 | x6 | x6 | x6 | x6 | x6 | x6 | x6 | x6 | x6 | x6 | %270
 x6 | x6 | x6 | x6 | x6 | x6 | x6 | x6 | x6 | x6 | x6 | x6 | x6 | x6 | x6 | x6 | x6 | x6 | x6 | %289
 x6 | x6 | x6 | x6 | x6 | x6 | x6 | x6 | x6 | x6 | x6 | x6 | x6 | x6 | x6 | x6 | x6 | x6 | x6 | %308
 x6 | x6 | x6 | x6 | x6 | x6 | x6 | x6 | x6 | x6 | x6 | x6 | x6 | x6 | x6 | x6 | x6 | x6 | x6 | %327
 x6 | x6 | x6 | x6 | x6 | x6 | x6 | x6 | x6 | x6 | x6 | x6 | x6 | x6 | x6 | x6 | x6 | x6 | x6 | %346
 x6 | x6 | x6 | x6 | x6 | x6 | x6 | x2[K:bass] x2[K:treble] x2 | x6 | %355
 x3/2[K:bass] x2[K:treble] x5/2 | x6 | x6 | x6 | x6 | x6 | x6 | x6 | x6 | x6 | x6 | x6 | x6 | x6 | %369
 x6 | x6 | x6 | x6 | x6 | x6 | x6 | x6 | x6 | x6 | x6 | x6 | x6 | x6 | x6 | x6 | x6 | x6 | x6 | %388
 x6 | x6 | x6 | x6 | x6 | x6 | x6 | x6 | x6 | x6 | x6 | x6 | x6 | x6 | x6 | x6 | x6 | x6 | x6 | %407
 x6 | x6 | x6 | x6 | x6 | x6 | x6 | x6 | x6 | x6 | x6 | x6 | x6 | x6 | x6 | x6 | x6 | x6 | x6 | %426
 x6 | x6 | x6 | x6 | x6 | x6 | x6 | x6 | x6 | x6 | x6 | x6 | x6 | x6 | x6 | x6 | x6 | x6 | x6 | %445
 x6 | x6 | x6 | x6 | x6 |] %450
V:5
 x8 | x8 | x8 | [G,B,]8 | x8 | x8 | [F,,,D,,F,,]2 z2!pp! F,,2 z2 | x8 | x8 | x8 | E,2 x2 x4 | x8 | %12
 E,2 x2 x4 | x8 | x8 | %15
 [A,,A,]/!mp![A,C]/[A,C]/[A,C]/ [A,C]/[A,C]/[A,C]/[A,C]/ [A,C]/!mp![A,C]/[A,C]/[A,C]/ [A,C]/[A,C]/[A,C]/[A,C]/ | %16
 x8 | x4 [CE]4 | x8 | x8 | x8 | x8 | x8 | x8 | x8 | x8 | x8 | x8 | x8 | x4 [=C,,=C,] z z2 | x8 | %31
 x8 | =F,,/F,,/F,,/F,,/ ^F,, z F,,/F,,/F,,/F,,/ =G,, z | x8 | x4 E4 | x8 | x4 E4 | x8 | x4 E4 | %39
 x8 | x8 | x8 | x8 | x8 | x8 | x8 | x8 | x8 | x8 | x8 | x8 | %51
 [=F,,=F,]/[F,,F,]/[F,,F,]/[F,,F,]/ F, z [F,,F,]/[F,,F,]/[F,,F,]/[F,,F,]/ F, z | x8 | x8 | x8 | %55
 x8 | x8 | x8 | x8 | x8 | x8 | x8 ||[M:6/8] x6 | x6 | x6 | x6 | x6 | x6 | x6 | x6 | x6 | x6 | x6 | %73
 A,3- A,3 | A,3- A,2 A, | x6 | x6 | A,3- A,2 A, | x6 | x6 | x6 | x6 | x6 | x6 | x6 | x6 | x6 | x6 | %88
 x6 | x6 | x6 | x6 | x6 | x6 | x6 | x6 | x6 | x6 | x6 | x6 | x6 | x6 | x6 | x6 | x6 | x6 | x6 | %107
 x6 | x6 | x6 | x6 | x6 | x6 | x6 | x6 | x6 | x6 | x6 | x6 | x6 | x6 |!8vb(! x3!8vb)! x3 | x6 | %123
 x6 | x6 | x6 | x6 | x6 | x6 | x6 | x6 | x6 | x6 | x6 | x6 | x6 | x6 | x6 | x6 | x6 | x6 | %141
[K:treble] x6 | x6 | x6 | x6 | x2[K:bass] x4 | x6 | x6 | x6 | x6 | x6 | x6 | x6 | x6 | x6 | x6 | %156
 x6 | x6 | x6 | x6 | x6 | x6 | B,,6 | x6 | x6 | x6 | x6 | x6 | x6 | x6 | x6 | x6 | x6 | x6 | x6 | %175
 x6 | x6 | x6 | x6 | x6 | x6 | x6 | x6 | x6 | x6 | x6 | x6 | x6 | E,>D,=C, C,2 z | x6 | %190
 =C,3- C,>C,C, | x6 | x3/2 D/=C z x2 | [=C,,=C,]2 z z3/2 C,/C, | x6 | x6 | x6 | x6 | x6 | x6 | x6 | %201
 x6 | x6 | x6 | x6 | x6 | x6 | x6 | x6 | x6 | x6 | x6 | x6 | x6 | x6 | x6 | x6 | x6 | x6 | x6 | %220
 x6 | =F,6 |[K:treble] =C2 z4 | x[K:bass] x5 | x6 | x6 | x6 |[K:treble] [=G,_B,]2 z z z2 | D z z4 | %229
[K:bass] x6 | x6 | A,2 z4 | x6 | x6 | x6 | x6 | x6 | =F,6- | F,6 | x6 | x6 | =G,6- | G,6 | x6 | %244
 x6 | A,6- | A,6 | x6 | x6 | x6 | x6 | x6 | x6 | x6 | x6 | x6 | x6 | x6 | x6 | x6 | E,>D,=C, x3 | %261
 x6 | x6 | x6 | x6 | x6 | x6 | x6 | x6 | x6 | x6 | x6 | x6 | x6 | x6 | x6 | x6 | x6 | x6 | x6 | %280
 x6 | x6 | x6 | x6 | x6 | x6 | x6 | x6 | x6 | x6 | x6 | x6 | x6 | x6 | x6 | x6 | x6 | x6 | x6 | %299
 x6 | x6 | x6 | x6 | D,6 | x6 | x6 | x6 | x6 | x6 | x6 | x6 | x6 | x6 | x6 | %314
 A,,,>A,,,A,,, A,,,>A,,,A,,, | A,,,>A,,,A,,, A,,,>A,,,A,,, | A,,,>A,,,A,,, A,,,>A,,,A,,, | %317
 A,,,>A,,,A,,,!p! A,,,>A,,,A,,, |!8vb(! x6 | x6!8vb)! |!8vb(! x6 | x6!8vb)! | x2!8vb(! x4 | x6 | %324
 x6!8vb)! | x6 | x6 | x6 | x6 | x6 | x6 | x6 | G,,F,, x4 | x6 | E,,D,, x4 | x6 | x6 | x6 | x6 | %339
 x6 | x6 | x6 | x6 | x6 | x6 | x6 | x6 | x6 | x6 | x6 | x6 | x6 | x6 | x6 | x6 | x6 | x6 | x6 | %358
 x6 | x6 | x6 | x6 | x6 | x6 | x6 | x6 | x6 | x6 | x6 | x6 | x6 | x6 | x6 | x6 | x6 | x6 | x6 | %377
 x6 | x6 | x6 | x6 | x6 | x6 | x6 | x6 | x6 | x6 | x6 | x6 | x6 | x6 | x6 | x6 | x6 | x6 | x6 | %396
 x6 | x6 | x6 | x6 | D,,3- D,,C,,^B,,, | ^B,,, C,,2- C,,3 | D,,3- D,,C,,^B,,, | ^B,,, C,,2- C,,3 | %404
 D,,3- D,,C,,^B,,, | ^B,,, C,,2- C,,3 | D,,3- D,,C,,^B,,, | ^B,,, C,,2- C,,3 | D,,3- D,,C,,^B,,, | %409
 ^B,,, C,,2- C,,3 | D,,3- D,,C,,^B,,, | ^B,,, C,,2- C,,3 | D,,3- D,,C,,^B,,, | ^B,,, C,,2- C,,3 | %414
 D,,3- D,,C,,^B,,, | ^B,,, C,,2- C,,3 | D,,3- D,,C,,^B,,, | ^B,,, C,,2- C,,3 | D,,3- D,,C,,^B,,, | %419
 ^B,,, C,,2- C,,3 | E,,6 | E,,2 x E,,2 x | x6 | x6 | x6 | x6 | x6 | x6 | x6 | x6 | x6 | x6 | x6 | %433
 x6 | x6 | x6 | x6 | x6 | x6 | x6 | x6 | x6 | x6 | x6 | x6 | x6 | x6 | x6 | x6 | x6 |] %450

